!!!!SEGMENT: pl-cz--iii-590--001_rygall-ignacy--omni-die-dic-mariae-aria-omni-die-dic-mariae.krn
!!!cenid: 17xx:1112
!!!COM: Rygall, Ignacy
!!!COM-rismID: pe30110281
!!!CDT: <1750->1799
!!!CNT:
!!!OPR: Omni die dic Mariae
!!!OTL: Aria - Omni die dic Mariae
!!!OMV: 001
!!!PDT:
!!!AGN:
!!!SMS-siglum: PL-CZ
!!!SMS-shelfmark: III-590
!!!SMS-shelfwork: 001-001 M
!!!SMS-variant:
!!!SMS-altvar:
!!!NIFC-rismSourceID: 300001128
!!!NIFC-rismChildID: 300001128
!!!NIFC-islandoraID: pl-cz:39389
!!!URL-pdf-islandora: https://repozytorium.nifc.pl/islandora/object/pl-cz%3A39389/datastream/PDF/view
!!!URL-scan: https://polish.musicsources.pl/pl/lokalizacje/galeria/rekopisy/6960/1 @EN{Scan on Polish Music Sources Website} @PL{Skany w portalu Dziedzictwo Muzyki Polskiej w otwartym dostępie}
!!!IIIF:
!!!ONB-nifc: UWAGA: części Omni die: Aria – Omni die dic Mariae, Coro – Contemplare
!!!AIN: 1 alto 1 bass 2 cor 2 flt 1 organ 1 soprn 2 violn
!!!key: G
**kern	**dynam	**kern	**dynam	**kern	**dynam	**kern	**kern	**kern	**text	**kern	**dynam	**kern	**dynam	**kern	**dynam	**kern	**dynam
*part10	*part10	*part9	*part9	*part8	*part8	*part7	*part6	*part5	*part5	*part4	*part4	*part3	*part3	*part2	*part2	*part1	*part1
*staff10	*	*staff9	*	*staff8	*	*staff7	*staff6	*staff5	*staff5	*staff4	*	*staff3	*	*staff2	*	*staff1	*
*I"Baſso	*	*I"Violino Secondo	*	*I"Violino Primo	*	*I"Baſso	*I"Alto	*I"Soprano. Solo.	*	*I"Cornu 2do in G	*	*I"Cornu 1mo in G:	*	*I"Flauto IIdo	*	*I"Flauto 1mo	*
*I'org	*	*I'vl II	*	*I'vl I	*	*I'B	*I'A	*I'S	*	*I'cor II	*	*I'cor I	*	*I'fl II	*	*I'fl I	*
*ICklav	*	*ICstr	*	*ICstr	*	*ICvox	*ICvox	*ICvox	*	*ICbras	*	*ICbras	*	*ICww	*	*ICww	*
*Iorgan	*	*Ivioln	*	*Ivioln	*	*Ibass	*Ialto	*Isoprn	*	*Icor	*	*Icor	*	*Iflt	*	*Iflt	*
*clefF4	*	*clefG2	*	*clefG2	*	*clefF4	*clefC3	*clefC1	*	*clefG2	*	*clefG2	*	*clefG2	*	*clefG2	*
*G:	*	*G:	*	*G:	*	*G:	*	*G:	*	*G:	*	*G:	*	*G:	*	*G:	*
*	*	*	*	*	*	*	*	*	*	*ITrd3c5	*	*ITrd3c5	*	*	*	*	*
*k[f#]	*	*k[f#]	*	*k[f#]	*	*k[f#]	*k[f#]	*k[f#]	*	*k[f#]	*	*k[f#]	*	*k[f#]	*	*k[f#]	*
*M3/4	*	*M3/4	*	*M3/4	*	*M3/4	*M3/4	*M3/4	*	*M3/4	*	*M3/4	*	*M3/4	*	*M3/4	*
=1	=1	=1	=1	=1	=1	=1	=1	=1	=1	=1	=1	=1	=1	=1	=1	=1	=1
!	!	!	!	!	!	!	!	!LO:TX:b:t=29	!	!	!	!	!	!	!	!	!
!	!	!	!	!	!	!	!	!LO:TX:b:B:t=Aria	!	!	!	!	!	!	!	!	!
!LO:TX:a:B:t=andantino\nAria	!	!LO:TX:a:B:t=Andantino	!	!LO:TX:a:B:t=Andantino\nAria	!	!LO:TX:a:B:t=Aria Tace	!LO:TX:a:B:t=Aria Tace	!LO:TX:a:B:t=Andantino.	!	!LO:TX:a:B:t=andantino\nAria	!	!LO:TX:a:B:t=Andantino\nAria	!	!LO:TX:a:B:t=andantino\nAria	!	!LO:TX:a:B:t=andantino\nAria	!
4r	.	4B/	.	4d/	.	2.ryy	2.ryy	2.r	.	4r	.	4r	.	4b\	.	4dd\	.
4GG/	.	4B/	.	4g/	.	.	.	.	.	4B/	.	4g\	.	4b\	.	4gg\	.
4G\	.	4d/	.	4b/	.	.	.	.	.	4g\	.	4b\	.	4dd\	.	4bb\	.
=2	=2	=2	=2	=2	=2	=2	=2	=2	=2	=2	=2	=2	=2	=2	=2	=2	=2
4D\	.	(8d/L	.	(8b/L	.	2.ryy	2.ryy	2.r	.	8g\L	.	8b\L	.	(8dd\L	.	(8bb\L	.
.	.	8c/)	.	8a/)	.	.	.	.	.	8d\	.	8a\	.	8cc\)	.	8aa\)	.
4DD/	.	(8c/	.	(8a/	.	.	.	.	.	8d\	.	8a\	.	(8cc\	.	(8aa\	.
.	.	8B/J)	.	8g/J)	.	.	.	.	.	8B\J	.	8g\J	.	8b\J)	.	8gg\J)	.
4GG/	.	4B/	.	4g/	.	.	.	.	.	4B\	.	4g\	.	4b\	.	4gg\	.
=3	=3	=3	=3	=3	=3	=3	=3	=3	=3	=3	=3	=3	=3	=3	=3	=3	=3
4r	.	4B/	.	4d/	.	2.ryy	2.ryy	2.r	.	4r	.	4r	.	4b\	.	4dd\	.
4G\	.	4b\	.	4dd\	.	.	.	.	.	4b\	.	4dd\	.	4bb\	.	4ddd\	.
4F#\	.	4a\	.	(8ee\L	.	.	.	.	.	4a\	.	4cc\	.	4aa\	.	4ccc\	.
.	.	.	.	8cc\J)	.	.	.	.	.	.	.	.	.	.	.	.	.
=4	=4	=4	=4	=4	=4	=4	=4	=4	=4	=4	=4	=4	=4	=4	=4	=4	=4
*2\right	*	*2\right	*	*2\right	*	*	*	*2\right	*	*2\right	*	*2\right	*	*	*	*2\right	*
.	.	8qqa/	.	8qqcc/	.	.	.	.	.	.	.	.	.	8qqaa/	.	8qqccc/	.
8G\L	.	2g/	.	(2b\	.	2.ryy	2.ryy	2.r	.	2g\	.	2b\	.	2gg\	.	2bb\	.
8A\	.	.	.	.	.	.	.	.	.	.	.	.	.	.	.	.	.
8B\	.	.	.	.	.	.	.	.	.	.	.	.	.	.	.	.	.
8c#X\J	.	.	.	.	.	.	.	.	.	.	.	.	.	.	.	.	.
!	!	!	!	!	!	!	!	!	!	!LO:N:vis=4	!	!	!	!	!	!	!
4d\	.	4f#/	.	4a\)	.	.	.	.	.	8d/	.	4a\	.	4ff#\	.	4aa\	.
!	!	!	!	!	!	!	!	!	!	!LO:N:vis=4	!	!	!	!	!	!	!
.	.	.	.	.	.	.	.	.	.	8r	.	.	.	.	.	.	.
=5	=5	=5	=5	=5	=5	=5	=5	=5	=5	=5	=5	=5	=5	=5	=5	=5	=5
4e\	.	4g/	.	4cc`\	.	2.ryy	2.ryy	2.r	.	2.r	.	2.r	.	2.r	.	2.r	.
4d\	.	4f#/	.	(8cc\L	.	.	.	.	.	.	.	.	.	.	.	.	.
.	.	.	.	8b\)	.	.	.	.	.	.	.	.	.	.	.	.	.
4c\	.	4e/	.	(8b\	.	.	.	.	.	.	.	.	.	.	.	.	.
.	.	.	.	8a\J)	.	.	.	.	.	.	.	.	.	.	.	.	.
=6	=6	=6	=6	=6	=6	=6	=6	=6	=6	=6	=6	=6	=6	=6	=6	=6	=6
4B\	.	4d/	.	4dd\	.	2.ryy	2.ryy	2.r	.	2.r	.	2.r	.	2.r	.	2.r	.
4A\	.	4c/	.	4f#/	.	.	.	.	.	.	.	.	.	.	.	.	.
4G\	.	4B/	.	4g/	.	.	.	.	.	.	.	.	.	.	.	.	.
=7	=7	=7	=7	=7	=7	=7	=7	=7	=7	=7	=7	=7	=7	=7	=7	=7	=7
4r	.	(16ee\LL	.	(16gg\LL	.	2.ryy	2.ryy	2.r	.	4r	.	4r	.	4r	.	4r	.
.	.	16dd\	.	16ff#\	.	.	.	.	.	.	.	.	.	.	.	.	.
.	.	16cc\	.	16ee\	.	.	.	.	.	.	.	.	.	.	.	.	.
.	.	16b\JJ)	.	16dd\JJ)	.	.	.	.	.	.	.	.	.	.	.	.	.
4F#\	.	4a\	.	4cc\	.	.	.	.	.	4b\	.	4cc\	.	4aa\	.	4ccc\	.
4G\	.	4g\	.	4b\	.	.	.	.	.	4a\	.	4b\	.	4gg\	.	4bb\	.
=8	=8	=8	=8	=8	=8	=8	=8	=8	=8	=8	=8	=8	=8	=8	=8	=8	=8
4D/	.	4g/	.	4b\	.	2.ryy	2.ryy	2.r	.	4g\	.	4b\	.	4gg\	.	4bb\	.
8d\L	.	4f#/	.	4a\	.	.	.	.	.	4d\	.	4a\	.	4ff#\	.	4aa\	.
8c\	.	.	.	.	.	.	.	.	.	.	.	.	.	.	.	.	.
8B\	.	4r	.	4r	.	.	.	.	.	4r	.	4r	.	4r	.	4r	.
8A\J	.	.	.	.	.	.	.	.	.	.	.	.	.	.	.	.	.
=9	=9	=9	=9	=9	=9	=9	=9	=9	=9	=9	=9	=9	=9	=9	=9	=9	=9
4r	.	4B/	.	4d/	.	2.ryy	2.ryy	2.r	.	4r	.	4r	.	4b\	.	4dd\	.
4G\	.	4B/	.	4g/	.	.	.	.	.	4B/	.	4g\	.	4b\	.	4gg\	.
4GG/	.	4d/	.	4b/	.	.	.	.	.	4g\	.	4b\	.	4dd\	.	4bb\	.
!LO:LB:g=original	!	!	!	!LO:LB:g=original	!	!	!	!	!	!	!LO:LB:g=original	!	!	!	!	!	!
=10	=10	=10	=10	=10	=10	=10	=10	=10	=10	=10	=10	=10	=10	=10	=10	=10	=10
4D\	.	(8d/L	.	(8b/L	.	2.ryy	2.ryy	2.r	.	8g\L	.	8b\L	.	(8dd\L	.	(8bb\L	.
.	.	8c/)	.	8a/)	.	.	.	.	.	8d\	.	8a\	.	8cc\)	.	8aa\)	.
4DD/	.	(8c/	.	(8a/	.	.	.	.	.	8d\	.	8a\	.	(8cc\	.	(8aa\	.
.	.	8B/J)	.	8g/J)	.	.	.	.	.	8B\J	.	8g\J	.	8b\J)	.	8gg\J)	.
4GG/	.	4B/	.	4g/	.	.	.	.	.	4B/	.	4g\	.	4b\	.	4gg\	.
!	!	!LO:LB:g=original	!	!	!	!	!	!	!LO:LB:g=original	!	!	!	!	!LO:LB:g=original	!	!LO:LB:g=original	!
=11	=11	=11	=11	=11	=11	=11	=11	=11	=11	=11	=11	=11	=11	=11	=11	=11	=11
4r	.	4B/	.	4d/	.	2.ryy	2.ryy	2.r	.	4r	.	4r	.	4b\	.	4dd\	.
4G\	.	4b\	.	4dd\	.	.	.	.	.	4b\	.	4dd\	.	4bb\	.	4ddd\	.
4F#\	.	4a\	.	(8ee\L	.	.	.	.	.	4a\	.	4cc\	.	4aa\	.	4ccc\	.
.	.	.	.	8cc\J)	.	.	.	.	.	.	.	.	.	.	.	.	.
=12	=12	=12	=12	=12	=12	=12	=12	=12	=12	=12	=12	=12	=12	=12	=12	=12	=12
.	.	8qqa/	.	8qqcc/	.	.	.	.	.	.	.	.	.	8qqaa/	.	8qqccc/	.
8G\L	.	2g/	.	2b\	.	2.ryy	2.ryy	2.r	.	2g\	.	2b\	.	2gg\	.	2bb\	.
8A\	.	.	.	.	.	.	.	.	.	.	.	.	.	.	.	.	.
8B\	.	.	.	.	.	.	.	.	.	.	.	.	.	.	.	.	.
8c#X\J	.	.	.	.	.	.	.	.	.	.	.	.	.	.	.	.	.
4d\	.	4f#/	.	4a\	.	.	.	.	.	4d/	.	4a\	.	4ff#\	.	4aa\	.
=13	=13	=13	=13	=13	=13	=13	=13	=13	=13	=13	=13	=13	=13	=13	=13	=13	=13
4e\	.	4g/	.	4cc\	.	2.ryy	2.ryy	2.r	.	2.r	.	2.r	.	2.r	.	2.r	.
4d\	.	4f#/	.	(8cc\L	.	.	.	.	.	.	.	.	.	.	.	.	.
.	.	.	.	8b\)	.	.	.	.	.	.	.	.	.	.	.	.	.
4c\	.	4e/	.	(8b\	.	.	.	.	.	.	.	.	.	.	.	.	.
.	.	.	.	8a\J)	.	.	.	.	.	.	.	.	.	.	.	.	.
=14	=14	=14	=14	=14	=14	=14	=14	=14	=14	=14	=14	=14	=14	=14	=14	=14	=14
4B\	.	4d/	.	4dd\	.	2.ryy	2.ryy	2.r	.	2.r	.	2.r	.	2.r	.	2.r	.
4A\	.	4c/	.	4f#/	.	.	.	.	.	.	.	.	.	.	.	.	.
4G\	.	4B/	.	4g/	.	.	.	.	.	.	.	.	.	.	.	.	.
=15	=15	=15	=15	=15	=15	=15	=15	=15	=15	=15	=15	=15	=15	=15	=15	=15	=15
4r	.	(16ee\LL	.	(16gg\LL	.	2.ryy	2.ryy	2.r	.	4r	.	4r	.	4r	.	4r	.
.	.	16dd\	.	16ff#\	.	.	.	.	.	.	.	.	.	.	.	.	.
.	.	16cc\	.	16ee\	.	.	.	.	.	.	.	.	.	.	.	.	.
.	.	16b\JJ)	.	16dd\JJ)	.	.	.	.	.	.	.	.	.	.	.	.	.
4F#\	.	4a/	.	4cc\	.	.	.	.	.	4a\	.	4cc\	.	4aa\	.	4ccc\	.
4G\	.	4g/	.	4b\	.	.	.	.	.	4g\	.	4b\	.	4gg\	.	4bb\	.
=16	=16	=16	=16	=16	=16	=16	=16	=16	=16	=16	=16	=16	=16	=16	=16	=16	=16
4D\	.	4g/	.	4b\	.	2.ryy	2.ryy	2.r	.	4g\	.	4b\	.	4gg\	.	4bb\	.
4AA/	.	4f#/	.	4a\	.	.	.	.	.	4d/	.	4a\	.	4ff#\	.	4aa\	.
4DD/	.	4r	.	4r	.	.	.	.	.	4r	.	4r	.	4r	.	4r	.
=17	=17	=17	=17	=17	=17	=17	=17	=17	=17	=17	=17	=17	=17	=17	=17	=17	=17
!	!	!LO:TX:t=P:problem=mixed beam	!	!LO:TX:t=P:problem=mixed beam	!	!	!	!	!	!	!	!	!	!	!	!	!
!	!	!	!LO:DY:t=p&colon;	!	!LO:DY:t=p&colon;	!	!	!	!	!	!	!	!	!	!	!	!
2.r	.	8d/L	p	8d/L	p	2.ryy	2.ryy	2.r	.	4r	.	4r	.	(16a\LL	.	(16ff#\LL	.
.	.	.	.	.	.	.	.	.	.	.	.	.	.	16g\	.	16ee\	.
.	.	8dd/	.	8dd/	.	.	.	.	.	.	.	.	.	16a\	.	16ff#\	.
.	.	.	.	.	.	.	.	.	.	.	.	.	.	16b\JJ)	.	16gg\JJ)	.
*	*	*	*	*	*	*	*	*	*	*tremolo	*	*	*	*	*	*	*
.	.	8d/	.	8d/	.	.	.	.	.	8d/L	.	8d/L	.	8cc'\L	.	8aa'\L	.
.	.	8dd/	.	8dd/	.	.	.	.	.	8d/	.	8d/	.	8cc'\	.	8aa'\	.
.	.	8d/	.	8d/	.	.	.	.	.	8d/	.	8d/	.	8cc'\	.	8aa'\	.
.	.	8dd/J	.	8dd/J	.	.	.	.	.	8d/J	.	8d/J	.	8cc'\J	.	8aa'\J	.
=18	=18	=18	=18	=18	=18	=18	=18	=18	=18	=18	=18	=18	=18	=18	=18	=18	=18
*	*	*	*	*^	*	*	*	*	*	*	*	*	*	*	*	*	*
!	!	!LO:TX:t=P:problem=mixed beam	!	!	!	!	!	!	!	!	!	!	!	!	!	!	!	!
2.r	.	8G/L	.	2.g\	2.G/	.	2.ryy	2.ryy	2.r	.	4r	.	4r	.	(16b\LL	.	(16gg\LL	.
.	.	.	.	.	.	.	.	.	.	.	.	.	.	.	16a\	.	16ff#\	.
.	.	8g/	.	.	.	.	.	.	.	.	.	.	.	.	16b\	.	16gg\	.
.	.	.	.	.	.	.	.	.	.	.	.	.	.	.	16cc\JJ)	.	16aa\JJ)	.
.	.	8G/	.	.	.	.	.	.	.	.	8g\L	.	8b\L	.	8dd'\L	.	8bb'\L	.
.	.	8g/	.	.	.	.	.	.	.	.	8g\	.	8b\	.	8dd'\	.	8bb'\	.
.	.	8G/	.	.	.	.	.	.	.	.	8g\	.	8b\	.	8dd'\	.	8bb'\	.
.	.	8g/J	.	.	.	.	.	.	.	.	8g\J	.	8b\J	.	8dd'\J	.	8bb'\J	.
=19	=19	=19	=19	=19	=19	=19	=19	=19	=19	=19	=19	=19	=19	=19	=19	=19	=19	=19
*	*	*	*	*tremolo	*	*	*	*	*	*	*Xtremolo	*	*	*	*	*	*	*
!	!	!LO:TX:t=P:problem=mixed beam	!	!	!	!	!	!	!	!	!	!	!	!	!	!	!	!
2.r	.	8d/L	.	8dd\L	8d/L	.	2.ryy	2.ryy	2.r	.	4d/	.	16a\LL	.	(16ff#\LL	.	(16aa\LL	.
.	.	.	.	.	.	.	.	.	.	.	.	.	16g\	.	16ee\	.	16gg\	.
.	.	8dd/	.	8dd\	8d/	.	.	.	.	.	.	.	16a\	.	16ff#\	.	16aa\	.
.	.	.	.	.	.	.	.	.	.	.	.	.	16b\JJ	.	16gg\JJ)	.	16bb\JJ)	.
.	.	8d/	.	8dd\	8d/	.	.	.	.	.	8a\L	.	8cc\L	.	8aa'\L	.	8ccc'\L	.
.	.	8dd/	.	8dd\	8d/	.	.	.	.	.	8a\	.	8cc\	.	8aa'\	.	8ccc'\	.
.	.	8d/	.	8dd\	8d/	.	.	.	.	.	8a\	.	8cc\	.	8aa'\	.	8ccc'\	.
.	.	8dd/J	.	8dd\J	8d/J	.	.	.	.	.	8a\J	.	8cc\J	.	8aa'\J	.	8ccc'\J	.
!	!	!	!	!	!	!	!	!	!	!	!	!	!	!	!	!	!LO:LB:g=original	!
!	!	!	!	!	!	!	!	!	!	!	!	!	!LO:LB:g=original	!	!	!	!	!
=20	=20	=20	=20	=20	=20	=20	=20	=20	=20	=20	=20	=20	=20	=20	=20	=20	=20	=20
!	!	!LO:TX:t=P:problem=mixed beam	!	!	!	!	!	!	!	!	!	!	!	!	!	!	!	!
2.r	.	8G/L	.	2.g\	2.G/	.	2.ryy	2.ryy	2.r	.	16g\LL	.	16b\LL	.	(16gg\LL	.	16bb\LL	.
.	.	.	.	.	.	.	.	.	.	.	16d\	.	16a\	.	16ff#\	.	16aa\	.
.	.	8g/	.	.	.	.	.	.	.	.	16g\	.	16b\	.	16gg\	.	16bb\	.
.	.	.	.	.	.	.	.	.	.	.	16a\JJ	.	16cc\JJ	.	16aa\JJ)	.	16ccc\JJ	.
.	.	8G/	.	.	.	.	.	.	.	.	8b\L	.	8dd\L	.	8bb\L	.	8ddd'\L	.
.	.	8g/	.	.	.	.	.	.	.	.	8b\	.	8dd\	.	8bb\	.	8ddd'\	.
.	.	8G/	.	.	.	.	.	.	.	.	8b\	.	8dd\	.	8bb\	.	8ddd'\	.
.	.	8g/J	.	.	.	.	.	.	.	.	8b\J	.	8dd\J	.	8bb\J	.	8ddd'\J	.
*	*	*	*	*v	*v	*	*	*	*	*	*	*	*	*	*	*	*	*
!	!	!	!	!LO:LB:g=original	!	!	!	!	!	!	!	!	!	!	!	!	!
!	!	!	!	!	!	!	!	!	!	!	!	!	!	!	!LO:LB:g=original	!	!
=21	=21	=21	=21	=21	=21	=21	=21	=21	=21	=21	=21	=21	=21	=21	=21	=21	=21
*tremolo	*	*	*	*	*	*	*	*	*	*	*	*	*	*	*	*	*
!	!LO:DY:t=p&colon;	!	!	!	!	!	!	!	!	!	!	!	!	!	!	!	!
8G\L	p	(16b\LL	.	(16gg\LL	.	2.ryy	2.ryy	2.r	.	4g\	.	4b\	.	4gg\	.	4bb\	.
.	.	16gg\)	.	16bb\)	.	.	.	.	.	.	.	.	.	.	.	.	.
8G\	.	(16gg\	.	(16bb\	.	.	.	.	.	.	.	.	.	.	.	.	.
.	.	16ff#\JJ)	.	16ddd\JJ)	.	.	.	.	.	.	.	.	.	.	.	.	.
8G\	.	(16ff#\LL	.	(16aa\LL	.	.	.	.	.	4r	.	4r	.	4r	.	4r	.
.	.	16ee\)	.	16gg\)	.	.	.	.	.	.	.	.	.	.	.	.	.
8G\	.	(16ee\	.	(16gg\	.	.	.	.	.	.	.	.	.	.	.	.	.
.	.	16dd\JJ)	.	16ff#\JJ)	.	.	.	.	.	.	.	.	.	.	.	.	.
8G\	.	(16dd\LL	.	(16ff#\LL	.	.	.	.	.	4r	.	4r	.	4r	.	4r	.
.	.	16cc\)	.	16ee\)	.	.	.	.	.	.	.	.	.	.	.	.	.
8G\J	.	(16cc\	.	(16ee\	.	.	.	.	.	.	.	.	.	.	.	.	.
.	.	16b\JJ)	.	16dd\JJ)	.	.	.	.	.	.	.	.	.	.	.	.	.
!	!	!LO:LB:g=original	!	!	!	!	!	!	!	!	!	!	!	!	!	!	!
!	!	!	!	!	!	!	!	!	!	!LO:LB:g=original	!	!	!	!	!	!	!
=22	=22	=22	=22	=22	=22	=22	=22	=22	=22	=22	=22	=22	=22	=22	=22	=22	=22
!	!LO:DY:t=f&colon;	!	!LO:DY:t=f&colon;	!	!	!	!	!	!	!	!	!	!	!	!	!	!
!	!	!	!	!	!LO:DY:t=f&colon;	!	!	!	!	!	!	!	!	!	!	!	!
4r	f	4.b\	f	4.dd\	f	2.ryy	2.ryy	2.r	.	4.b\	.	4.dd\	.	4.bb\	.	4.ddd\	.
4D\	.	.	.	.	.	.	.	.	.	.	.	.	.	.	.	.	.
.	.	8a\	.	8cc\	.	.	.	.	.	8a\	.	8cc\	.	8aa\	.	8ccc\	.
4G\	.	8g\L	.	8b\L	.	.	.	.	.	4g\	.	4b\	.	4gg\	.	4bb\	.
.	.	8b\J	.	8gg\J	.	.	.	.	.	.	.	.	.	.	.	.	.
=23	=23	=23	=23	=23	=23	=23	=23	=23	=23	=23	=23	=23	=23	=23	=23	=23	=23
4C\	.	8cc\L	.	8ee\L	.	2.ryy	2.ryy	2.r	.	4a\	.	4cc\	.	8.ccc\L	.	8.eee\L	.
.	.	16b\L	.	16dd\L	.	.	.	.	.	.	.	.	.	.	.	.	.
.	.	16a\JJ	.	16cc\JJ	.	.	.	.	.	.	.	.	.	32bb\LL	.	32ddd\LL	.
.	.	.	.	.	.	.	.	.	.	.	.	.	.	32aa\JJJ	.	32ccc\JJJ	.
4D\	.	4g/	.	4b\	.	.	.	.	.	4g\	.	4b\	.	4gg\	.	4bb\	.
4D\	.	4f#/	.	4aM\	.	.	.	.	.	4d\	.	4a\	.	4ff#\	.	4aa\	.
=24	=24	=24	=24	=24	=24	=24	=24	=24	=24	=24	=24	=24	=24	=24	=24	=24	=24
!LO:TX:t=P:problem=mixed beam	!	!	!	!	!	!	!	!	!	!	!	!	!	!	!	!	!
!	!LO:DY:t=p&colon;	!	!	!	!	!	!	!	!	!	!	!	!	!	!	!	!
8GG/L	p	4B/	.	4g\	.	2.ryy	2.ryy	2.r	.	4B/	.	4g\	.	4b\	.	4gg\	.
8G/	.	.	.	.	.	.	.	.	.	.	.	.	.	.	.	.	.
!	!	!	!LO:DY:t=p&colon;	!	!LO:DY:t=p&colon;	!	!	!	!	!	!	!	!	!	!	!	!
8GG/	.	8r	p	8r	p	.	.	.	.	4r	.	4r	.	8r	.	8r	.
!	!	!	!	!	!	!	!	!	!	!	!	!	!	!	!LO:DY:t=p&colon;	!	!LO:DY:t=p&colon;
8G/	.	16b\LL	.	16dd\LL	.	.	.	.	.	.	.	.	.	16bb\LL	p	16ddd\LL	p
.	.	16cc\JJ	.	16ee\JJ	.	.	.	.	.	.	.	.	.	16ccc\JJ	.	16eee\JJ	.
8GG/	.	8b\L	.	8dd\L	.	.	.	.	.	8b\L	.	4dd\	.	8bb\L	.	8ddd\L	.
8G/J	.	8b\J	.	8dd\J	.	.	.	.	.	8b\J	.	.	.	8bb\J	.	8ddd\J	.
!LO:LB:g=original	!	!	!	!	!	!	!	!	!	!	!	!	!	!	!	!	!
=25	=25	=25	=25	=25	=25	=25	=25	=25	=25	=25	=25	=25	=25	=25	=25	=25	=25
*Xtremolo	*	*	*	*	*	*	*	*	*	*	*	*	*	*	*	*	*
!	!	!	!	!	!LO:DY:t=f&colon;	!	!	!	!	!	!	!	!	!	!	!	!
!	!LO:DY:t=f&colon;	!	!	!	!	!	!	!	!	!	!	!	!	!	!	!	!
!	!	!	!LO:DY:t=f&colon;	!	!	!	!	!	!	!	!	!	!	!	!	!	!
!	!	!	!	!	!	!	!	!	!	!	!LO:DY:t=f&colon;	!	!	!	!	!	!
!	!	!	!	!	!	!	!	!	!	!	!	!	!	!	!LO:DY:t=f&colon;	!	!LO:DY:t=f&colon;
8C\L	f	(16b\LL	f	(16dd\LL	f	2.ryy	2.ryy	2.r	.	8b\L	f	8dd\L	.	(16bb\LL	f	(16ddd\LL	f
.	.	16e\J)	.	16cc\J)	.	.	.	.	.	.	.	.	.	16ee\J)	.	16ccc\J)	.
8C\J	.	8e'\J	.	8cc'\J	.	.	.	.	.	8a\J	.	8cc\J	.	8ee`\J	.	8ccc`\J	.
!	!	!	!	!	!LO:DY:t=p&colon;	!	!	!	!	!	!	!	!	!	!	!	!
!	!LO:DY:t=p&colon;	!	!	!	!	!	!	!	!	!	!	!	!	!	!	!	!
8C\L	p	8r	.	8r	p	.	.	.	.	4r	.	4r	.	8r	.	8r	.
!	!	!	!LO:DY:t=p&colon;	!	!	!	!	!	!	!	!	!	!	!	!LO:DY:t=p&colon;	!	!
8C\	.	8d/	p	8a/	.	.	.	.	.	.	.	.	.	8ee\	p	8aa\	p
!	!	!	!	!	!	!	!	!	!	!	!LO:DY:t=p&colon;	!	!	!	!	!	!
8D\	.	8d/L	.	16g/LL	.	.	.	.	.	4d/	p	4a\	.	8dd\L	.	(16gg\LL	.
.	.	.	.	16f#/	.	.	.	.	.	.	.	.	.	.	.	16ff#\)	.
8D\J	.	8c/J	.	16e/	.	.	.	.	.	.	.	.	.	8cc\J	.	(16ee\	.
.	.	.	.	16d/JJ	.	.	.	.	.	.	.	.	.	.	.	16dd\JJ)	.
=26	=26	=26	=26	=26	=26	=26	=26	=26	=26	=26	=26	=26	=26	=26	=26	=26	=26
!LO:TX:t=P:problem=mixed beam	!	!	!	!	!	!	!	!	!	!	!	!	!	!	!	!	!
8GG/L	.	4B/	.	4g/	.	2.ryy	2.ryy	2.r	.	4B/	.	4g\	.	4b\	.	4gg\	.
8G/	.	.	.	.	.	.	.	.	.	.	.	.	.	.	.	.	.
8GG/	.	8r	.	8r	.	.	.	.	.	4r	.	4r	.	8r	.	8r	.
!	!	!	!LO:DY:t=p&colon;	!	!	!	!	!	!	!	!	!	!	!	!	!	!
8G/	.	16b\LL	p	16dd\LL	.	.	.	.	.	.	.	.	.	16bb\LL	.	16ddd\LL	.
.	.	16cc\JJ	.	16ee\JJ	.	.	.	.	.	.	.	.	.	16ccc\JJ	.	16eee\JJ	.
8GG/	.	8b\L	.	8dd\L	.	.	.	.	.	8b\L	.	4dd\	.	8bb\L	.	8ddd\L	.
8G/J	.	8b\J	.	8dd\J	.	.	.	.	.	8b\J	.	.	.	8bb\J	.	8ddd\J	.
!	!	!	!	!	!	!	!	!	!	!	!	!	!	!	!	!LO:LB:g=original	!
=27	=27	=27	=27	=27	=27	=27	=27	=27	=27	=27	=27	=27	=27	=27	=27	=27	=27
!	!LO:DY:t=f&colon;	!	!LO:DY:t=f&colon;	!	!LO:DY:t=for	!	!	!	!	!	!	!	!	!	!	!	!
!	!	!	!	!	!	!	!	!	!	!	!LO:DY:t=f&colon;	!	!	!	!LO:DY:t=f&colon;	!	!
8C/L	f	(16b/LL	f	(16dd\LL	f	2.ryy	2.ryy	2.r	.	8b\L	f	8dd\L	.	(16bb\LL	f	(16ddd\LL	.
.	.	16e/J)	.	16cc\J)	.	.	.	.	.	.	.	.	.	16ee\J)	.	16ccc\J)	.
!	!	!	!	!	!	!	!	!	!	!	!	!	!	!LO:TX:a:t=|	!	!LO:TX:a:t=|	!
8C/J	.	8e'/J	.	8cc'\J	.	.	.	.	.	8a\J	.	8cc\J	.	8ee\J	.	8ccc\J	.
!	!LO:DY:t=p&colon;	!	!	!	!	!	!	!	!	!	!	!	!	!	!	!	!
8C/L	p	8r	.	8r	.	.	.	.	.	4r	.	4r	.	8r	.	8r	.
!	!	!	!LO:DY:t=p&colon;	!	!	!	!	!	!	!	!	!	!	!	!LO:DY:t=p&colon;	!	!
8C/	.	8e/	p	8a/	.	.	.	.	.	.	.	.	.	8dd\	p	8aa\	.
!	!	!	!	!LO:TX:t=P:problem=kreska taktowa przed nutą	!	!	!	!	!	!	!	!	!	!	!	!	!
!	!	!	!	!	!LO:DY:t=p&colon;	!	!	!	!	!	!	!	!	!	!	!	!
8D/	.	8d/L	.	16g/LL	p	.	.	.	.	4d/	.	4a\	.	8dd\L	.	16gg\LL	.
.	.	.	.	16f#/	.	.	.	.	.	.	.	.	.	.	.	16ff#\	.
8D/J	.	8c/J	.	16e/	.	.	.	.	.	.	.	.	.	8cc\J	.	16ee\	.
.	.	.	.	16d/JJ	.	.	.	.	.	.	.	.	.	.	.	16dd\JJ	.
!	!	!	!	!LO:LB:g=original	!	!	!	!	!	!	!	!	!	!	!	!	!
=28	=28	=28	=28	=28	=28	=28	=28	=28	=28	=28	=28	=28	=28	=28	=28	=28	=28
4GG/	.	4B/	.	4g/	.	2.ryy	2.ryy	2.r	.	4B/	.	4g\	.	4b\	.	4gg\	.
*tremolo	*	*tremolo	*	*	*	*	*	*	*	*tremolo	*	*	*	*	*	*	*
*	*	*	*	*	*	*	*	*	*	*	*	*tremolo	*	*	*	*	*
*	*	*	*	*	*	*	*	*	*	*	*	*	*	*tremolo	*	*	*
*	*	*	*	*	*	*	*	*	*	*	*	*	*	*	*	*tremolo	*
8GG/L	.	8B/L	.	8g/L	.	.	.	.	.	8G/L	.	8g\L	.	8b\L	.	8gg\L	.
8GG/	.	8B/	.	8g/	.	.	.	.	.	8G/	.	8g\	.	8b\	.	8gg\	.
8GG/	.	8B/	.	8g/	.	.	.	.	.	8G/	.	8g\	.	8b\	.	8gg\	.
8GG/J	.	8B/J	.	8g/J	.	.	.	.	.	8G/J	.	8g\J	.	8b\J	.	8gg\J	.
=29	=29	=29	=29	=29	=29	=29	=29	=29	=29	=29	=29	=29	=29	=29	=29	=29	=29
2GG/	.	2B/	.	2g/	.	2.ryy	2.ryy	2.r	.	2G/	.	2g\	.	2b\	.	2gg\	.
4r	.	4r	.	4r	.	.	.	.	.	4r	.	4r	.	4r	.	4r	.
!	!	!	!	!	!	!	!	!	!	!	!	!LO:LB:g=original	!	!LO:LB:g=original	!	!	!
=30	=30	=30	=30	=30	=30	=30	=30	=30	=30	=30	=30	=30	=30	=30	=30	=30	=30
!	!	!LO:TX:a:t=Sola voce	!	!LO:TX:a:t=Sola voce	!	!	!	!LO:TX:a:t=Solo.	!	!	!	!	!	!	!	!	!
!	!LO:DY:t=p&colon;	!	!LO:DY:t=p&colon;	!	!LO:DY:t=p&colon;	!	!	!	!	!	!	!	!LO:DY:t=p&colon;	!	!	!	!
4r	p	4B/	p	4d/	p	2.ryy	2.ryy	4d/	Om-	4r	.	4r	p	4b\	.	4dd\	.
4G\	.	4B/	.	4g/	.	.	.	(4g\	-ni	4B/	.	4g\	.	4b\	.	4gg\	.
4GG/	.	4d/	.	4b/	.	.	.	4b\)	.	4g\	.	4b\	.	4dd\	.	4bb\	.
=31	=31	=31	=31	=31	=31	=31	=31	=31	=31	=31	=31	=31	=31	=31	=31	=31	=31
*	*	*Xtremolo	*	*	*	*	*	*	*	*Xtremolo	*	*Xtremolo	*	*Xtremolo	*	*Xtremolo	*
4D\	.	(8d/L	.	8b/L	.	2.ryy	2.ryy	(8b\L	Di-	8g\L	.	8b\L	.	(8dd\L	.	(8bb\L	.
.	.	8c/)	.	8a/	.	.	.	8a\)	.	8d\	.	8a\	.	8cc\)	.	8aa\)	.
4DD/	.	(8c/	.	8a/	.	.	.	(8a\	.	8d\	.	8a\	.	(8cc\	.	(8aa\	.
.	.	8B/J)	.	8g/J	.	.	.	8g\J)	.	8B\J	.	8g\J	.	8b\J)	.	8gg\J)	.
4GG/	.	4B/	.	4g/	.	.	.	4g\	-e	4B/	.	4g\	.	4b\	.	4gg\	.
!	!	!LO:LB:g=original	!	!	!	!	!	!	!	!	!	!	!	!	!	!	!
!	!	!	!	!	!	!	!	!	!	!LO:LB:g=original	!	!	!	!	!	!	!
=32	=32	=32	=32	=32	=32	=32	=32	=32	=32	=32	=32	=32	=32	=32	=32	=32	=32
4r	.	4B/	.	4d/	.	2.ryy	2.ryy	(4d/	dic	4r	.	4r	.	4b\	.	4dd\	.
4G\	.	4b\	.	4dd\	.	.	.	4dd\)	.	4b\	.	4dd\	.	4bb\	.	4ddd\	.
4F#\	.	8cc\L	.	8ee\L	.	.	.	8ee\L	Ma-	4a\	.	4cc\	.	8ccc\L	.	8eee\L	.
.	.	8a\J	.	8cc\J	.	.	.	8cc\J	.	.	.	.	.	8aa\J	.	8ccc\J	.
=33	=33	=33	=33	=33	=33	=33	=33	=33	=33	=33	=33	=33	=33	=33	=33	=33	=33
.	.	8qqa/	.	8qqcc/	.	.	.	4qqcc/	.	8qqa/	.	.	.	8qqaa/	.	8qqccc/	.
8G\L	.	2g/	.	2b\	.	2.ryy	2.ryy	2b\	-ri-	2g\	.	2b\	.	2gg\	.	2bb\	.
8A\	.	.	.	.	.	.	.	.	.	.	.	.	.	.	.	.	.
8B\	.	.	.	.	.	.	.	.	.	.	.	.	.	.	.	.	.
8c#X\J	.	.	.	.	.	.	.	.	.	.	.	.	.	.	.	.	.
4d\	.	4f#/	.	4a\	.	.	.	4a\	-ae	4d\	.	4a\	.	4ff#\	.	4aa\	.
!LO:LB:g=original	!	!	!	!	!	!	!	!	!	!	!	!	!	!	!	!	!
=34	=34	=34	=34	=34	=34	=34	=34	=34	=34	=34	=34	=34	=34	=34	=34	=34	=34
4e\	.	4g/	.	4cc\	.	2.ryy	2.ryy	4cc\	me-	2.r	.	2.r	.	2.r	.	2.r	.
4d\	.	4f#/	.	(8cc\L	.	.	.	8cc\L	.	.	.	.	.	.	.	.	.
.	.	.	.	8b\)	.	.	.	8b\J	.	.	.	.	.	.	.	.	.
4c\	.	4e/	.	(8b\	.	.	.	8b\L	-a	.	.	.	.	.	.	.	.
.	.	.	.	8a\J)	.	.	.	8a\J	.	.	.	.	.	.	.	.	.
!	!	!	!	!	!	!	!	!LO:LB:g=original	!	!	!	!	!	!	!	!	!
=35	=35	=35	=35	=35	=35	=35	=35	=35	=35	=35	=35	=35	=35	=35	=35	=35	=35
4B\	.	4d/	.	4dd\	.	2.ryy	2.ryy	(4dd\	lau-	2.r	.	2.r	.	2.r	.	2.r	.
4A\	.	4c/	.	4f#/	.	.	.	4f#/)	.	.	.	.	.	.	.	.	.
4G\	.	4B/	.	4g/	.	.	.	4g/	-des	.	.	.	.	.	.	.	.
=36	=36	=36	=36	=36	=36	=36	=36	=36	=36	=36	=36	=36	=36	=36	=36	=36	=36
!	!	!	!	!	!LO:DY:t=f&colon;	!	!	!	!	!	!	!	!	!	!	!	!
4r	.	16ee\LL	.	(16gg\LL	f	2.ryy	2.ryy	4r	.	4r	.	4r	.	4r	.	4r	.
.	.	16dd\	.	16ff#\)	.	.	.	.	.	.	.	.	.	.	.	.	.
.	.	16cc\	.	(16ee\	.	.	.	.	.	.	.	.	.	.	.	.	.
.	.	16b\JJ	.	16dd\JJ)	.	.	.	.	.	.	.	.	.	.	.	.	.
!	!	!	!	!	!LO:DY:t=p&colon;	!	!	!	!	!	!	!	!	!	!	!	!
4F#\	.	4a\	.	4cc\	p	.	.	4cc\	a-	4a\	.	4cc\	.	4aa\	.	4ccc\	.
4G\	.	4g\	.	4b\	.	.	.	4b\	-ni-	4g\	.	4b\	.	4gg\	.	4bb\	.
=37	=37	=37	=37	=37	=37	=37	=37	=37	=37	=37	=37	=37	=37	=37	=37	=37	=37
*Xtremolo	*	*	*	*	*	*	*	*	*	*	*	*	*	*	*	*	*
.	.	.	.	.	.	.	.	4qqb/	.	.	.	.	.	.	.	.	.
4D/	.	4g/	.	4b\	.	2.ryy	2.ryy	2a\	-ma	4g\	.	4b\	.	4gg\	.	4bb\	.
8d\L	.	4f#/	.	4a\	.	.	.	.	.	4d\	.	4a\	.	4ff#\	.	4aa\	.
8c\	.	.	.	.	.	.	.	.	.	.	.	.	.	.	.	.	.
8B\	.	4r	.	4r	.	.	.	4r	.	4r	.	4r	.	4r	.	4r	.
8A\J	.	.	.	.	.	.	.	.	.	.	.	.	.	.	.	.	.
!	!	!	!	!	!	!	!	!	!	!	!	!	!	!	!	!LO:LB:g=original	!
=38	=38	=38	=38	=38	=38	=38	=38	=38	=38	=38	=38	=38	=38	=38	=38	=38	=38
4r	.	4B/	.	4d/	.	2.ryy	2.ryy	(4d/	om-	4r	.	4r	.	4b\	.	4dd\	.
4G\	.	4B/	.	4g/	.	.	.	4g\)	.	4B/	.	4g\	.	4b\	.	4gg\	.
4GG/	.	4d/	.	4b/	.	.	.	4b\	-ni	4g\	.	4b\	.	4dd\	.	4bb\	.
=39	=39	=39	=39	=39	=39	=39	=39	=39	=39	=39	=39	=39	=39	=39	=39	=39	=39
4D\	.	(8d/L	.	(8b\L	.	2.ryy	2.ryy	8b\L	Di-	8g\L	.	8b\L	.	(8dd\L	.	(8bb\L	.
.	.	8c/)	.	8a\)	.	.	.	8a\	.	8d\	.	8a\	.	8cc\)	.	8aa\)	.
4DD/	.	(8c/	.	(8a\	.	.	.	8a\	.	8d\	.	8a\	.	(8cc\	.	(8aa\	.
.	.	8B/J)	.	8g\J)	.	.	.	8g\J	.	8B\J	.	8g\J	.	8b\J)	.	8gg\J)	.
4GG/	.	4B/	.	4g\	.	.	.	4g\	-e	4B/	.	4g\	.	4b\	.	4gg\	.
!	!	!	!	!LO:LB:g=original	!	!	!	!	!	!	!	!	!	!	!	!	!
=40	=40	=40	=40	=40	=40	=40	=40	=40	=40	=40	=40	=40	=40	=40	=40	=40	=40
4r	.	4B/	.	4d/	.	2.ryy	2.ryy	4d/	dic	4r	.	4r	.	4b\	.	4dd\	.
4G\	.	4b\	.	4dd\	.	.	.	4dd\	.	4b\	.	4dd\	.	4bb\	.	4ddd\	.
4F#\	.	8cc\L	.	(8ee\L	.	.	.	8ee\L	Ma-	4a\	.	4cc\	.	8ccc\L	.	8eee\L	.
.	.	8a\J	.	8cc\J)	.	.	.	8cc\J	.	.	.	.	.	8aa\J	.	8ccc\J	.
=41	=41	=41	=41	=41	=41	=41	=41	=41	=41	=41	=41	=41	=41	=41	=41	=41	=41
.	.	8qqa/	.	8qqcc/	.	.	.	4qqcc/	.	.	.	.	.	8qqaa/	.	8qqccc/	.
8G\L	.	2g/	.	2b\	.	2.ryy	2.ryy	2b\	-ri-	2g\	.	2b\	.	2gg\	.	2bb\	.
8A\J	.	.	.	.	.	.	.	.	.	.	.	.	.	.	.	.	.
8B\L	.	.	.	.	.	.	.	.	.	.	.	.	.	.	.	.	.
8c\J	.	.	.	.	.	.	.	.	.	.	.	.	.	.	.	.	.
4d\	.	4f#/	.	4a\	.	.	.	4a\	-ae	4d\	.	4a\	.	4ff#\	.	4aa\	.
!	!	!	!	!	!	!	!	!	!	!	!	!LO:LB:g=original	!	!LO:LB:g=original	!	!	!
=42	=42	=42	=42	=42	=42	=42	=42	=42	=42	=42	=42	=42	=42	=42	=42	=42	=42
4e\	.	4g/	.	4cc\	.	2.ryy	2.ryy	4cc\	me-	2.r	.	2.r	.	2.r	.	2.r	.
4d\	.	4f#/	.	(8cc\L	.	.	.	8cc\L	.	.	.	.	.	.	.	.	.
.	.	.	.	8b\)	.	.	.	8b\J	.	.	.	.	.	.	.	.	.
4c\	.	4e/	.	(8b\	.	.	.	8b\L	.	.	.	.	.	.	.	.	.
.	.	.	.	8a\J)	.	.	.	8a\J	-a	.	.	.	.	.	.	.	.
!	!	!	!	!	!	!	!	!LO:LB:g=original	!	!	!	!	!	!	!	!	!
=43	=43	=43	=43	=43	=43	=43	=43	=43	=43	=43	=43	=43	=43	=43	=43	=43	=43
4B\	.	4d/	.	4dd\	.	2.ryy	2.ryy	(4dd\	lau-	2.r	.	2.r	.	2.r	.	2.r	.
4A\	.	4c/	.	4f#/	.	.	.	4f#/)	.	.	.	.	.	.	.	.	.
4G\	.	4B/	.	4g/	.	.	.	4g/	-des	.	.	.	.	.	.	.	.
=44	=44	=44	=44	=44	=44	=44	=44	=44	=44	=44	=44	=44	=44	=44	=44	=44	=44
!	!	!	!	!	!LO:DY:t=f&colon;	!	!	!	!	!	!	!	!	!	!	!	!
4r	.	(16ee\LL	.	(16gg\LL	f	2.ryy	2.ryy	4r	.	4r	.	4r	.	4r	.	4r	.
.	.	16dd\	.	16ff#\)	.	.	.	.	.	.	.	.	.	.	.	.	.
.	.	16cc\	.	(16ee\	.	.	.	.	.	.	.	.	.	.	.	.	.
.	.	16b\JJ)	.	16dd\JJ)	.	.	.	.	.	.	.	.	.	.	.	.	.
!	!	!	!	!	!LO:DY:t=p&colon;	!	!	!	!	!	!	!	!	!	!	!	!
4F#\	.	4a\	.	4cc\	p	.	.	4cc\	a-	4a\	.	4cc\	.	4aa\	.	4ccc\	.
4G\	.	4g\	.	4b\	.	.	.	4b\	-ni-	4g\	.	4b\	.	4gg\	.	4bb\	.
!	!	!LO:LB:g=original	!	!	!	!	!	!	!	!	!	!	!	!	!	!	!
!	!	!	!	!	!	!	!	!	!	!LO:LB:g=original	!	!	!	!	!	!	!
=45	=45	=45	=45	=45	=45	=45	=45	=45	=45	=45	=45	=45	=45	=45	=45	=45	=45
!	!LO:DY:t=f&colon;	!	!	!	!	!	!	!	!	!	!	!	!	!	!	!	!
.	.	.	.	.	.	.	.	4qqb/	.	.	.	.	.	.	.	.	.
4G\	f	4g/	.	4b\	.	2.ryy	2.ryy	2a\	-ma	4g\	.	4b\	.	4gg\	.	4bb\	.
!	!	!	!LO:DY:t=f&colon;	!	!LO:DY:t=for	!	!	!	!	!	!	!	!	!	!	!	!
*	*	*	*	*Xtremolo	*	*	*	*	*	*	*	*	*	*	*	*	*
8D\L	.	8f#/L	f	8a\L	f	.	.	.	.	4d\	.	4a\	.	4ff#\	.	4aa\	.
8D\	.	8f#/	.	8a\	.	.	.	.	.	.	.	.	.	.	.	.	.
8E\	.	8g/	.	8cc#X\	.	.	.	4r	.	4r	.	4r	.	4r	.	4r	.
8E\J	.	8g/J	.	8cc#\J	.	.	.	.	.	.	.	.	.	.	.	.	.
!LO:LB:g=original	!	!	!	!	!	!	!	!	!	!	!	!	!	!	!	!	!
=46	=46	=46	=46	=46	=46	=46	=46	=46	=46	=46	=46	=46	=46	=46	=46	=46	=46
*tremolo	*	*tremolo	*	*tremolo	*	*	*	*	*	*	*	*	*	*	*	*	*
!	!LO:DY:t=p.	!	!	!	!LO:DY:t=p&colon;	!	!	!	!	!	!	!	!	!	!	!	!
8F#\L	p	8a/L	p	8dd\L	p	2.ryy	2.ryy	8.dd\L	e-	2.r	.	2.r	.	2.r	.	2.r	.
8F#\	.	8a/	.	8dd\	.	.	.	.	.	.	.	.	.	.	.	.	.
.	.	.	.	.	.	.	.	16ee\Jk	.	.	.	.	.	.	.	.	.
8F#\	.	8a/	.	8dd\	.	.	.	4dd\	.	.	.	.	.	.	.	.	.
8F#\	.	8a/	.	8dd\	.	.	.	.	.	.	.	.	.	.	.	.	.
8F#\	.	8a/	.	8dd\	.	.	.	4cc\	-jus	.	.	.	.	.	.	.	.
8F#\J	.	8a/J	.	8dd\J	.	.	.	.	.	.	.	.	.	.	.	.	.
=47	=47	=47	=47	=47	=47	=47	=47	=47	=47	=47	=47	=47	=47	=47	=47	=47	=47
8G\L	.	8b\L	.	8dd\L	.	2.ryy	2.ryy	(16cc\LL	Fes-	2.r	.	2.r	.	2.r	.	2.r	.
.	.	.	.	.	.	.	.	16b\	.	.	.	.	.	.	.	.	.
8G\	.	8b\	.	8dd\	.	.	.	16a#X\	.	.	.	.	.	.	.	.	.
.	.	.	.	.	.	.	.	16b\JJ)	.	.	.	.	.	.	.	.	.
8G\	.	8b\	.	8dd\	.	.	.	8b\	-ta	.	.	.	.	.	.	.	.
8G\	.	8b\	.	8dd\	.	.	.	8b\L	e-	.	.	.	.	.	.	.	.
8G\	.	8b\	.	8dd\	.	.	.	8cc#X\	.	.	.	.	.	.	.	.	.
8G\J	.	8b\J	.	8dd\J	.	.	.	8dd#X\J	.	.	.	.	.	.	.	.	.
=48	=48	=48	=48	=48	=48	=48	=48	=48	=48	=48	=48	=48	=48	=48	=48	=48	=48
*	*	*	*	*^	*	*	*	*	*	*	*	*	*	*	*	*	*
8G\L	.	8b\L	.	8ee/L	8dd\L	.	2.ryy	2.ryy	8.ee\L	.	2.r	.	2.r	.	2.r	.	2.r	.
8G\	.	8b\	.	8ee/	8dd\	.	.	.	.	.	.	.	.	.	.	.	.	.
.	.	.	.	.	.	.	.	.	16ff#\Jk	.	.	.	.	.	.	.	.	.
8G\	.	8b\	.	8ee/	8dd\	.	.	.	4ee\	.	.	.	.	.	.	.	.	.
8G\J	.	8b\	.	8ee/	8dd\	.	.	.	.	.	.	.	.	.	.	.	.	.
8G#X\L	.	8b\	.	8ee/	8dd\	.	.	.	4dd\	-jus	.	.	.	.	.	.	.	.
8G#X\J	.	8b\J	.	8ee/J	8dd\J	.	.	.	.	.	.	.	.	.	.	.	.	.
*	*	*	*	*v	*v	*	*	*	*	*	*	*	*	*	*	*	*	*
!	!	!	!	!	!	!	!	!	!LO:LB:g=original	!	!	!	!	!	!	!	!
=49	=49	=49	=49	=49	=49	=49	=49	=49	=49	=49	=49	=49	=49	=49	=49	=49	=49
8A\L	.	8cc#X\L	.	8ee\L	.	2.ryy	2.ryy	4dd\	ges-	2.r	.	2.r	.	2.r	.	2.r	.
8A\	.	8cc#X\	.	8ee\	.	.	.	.	.	.	.	.	.	.	.	.	.
8A\	.	8cc#X\	.	8ee\	.	.	.	4cc#X\	-ta	.	.	.	.	.	.	.	.
8A\	.	8cc#X\	.	8ee\	.	.	.	.	.	.	.	.	.	.	.	.	.
8A\	.	8cc#X\	.	8ee\	.	.	.	4r	.	.	.	.	.	.	.	.	.
8A\J	.	8cc#X\J	.	8ee\J	.	.	.	.	.	.	.	.	.	.	.	.	.
=50	=50	=50	=50	=50	=50	=50	=50	=50	=50	=50	=50	=50	=50	=50	=50	=50	=50
*Xtremolo	*	*Xtremolo	*	*	*	*	*	*	*	*	*	*	*	*	*	*	*
8A\L	.	8c#X/L	.	8a\ 8ggL	.	2.ryy	2.ryy	4gg\	co-	2.r	.	2.r	.	2.r	.	2.r	.
8A\	.	8c#/	.	8a\ 8gg	.	.	.	.	.	.	.	.	.	.	.	.	.
8B\	.	8d/	.	8a\ 8gg	.	.	.	2gg\	-le	.	.	.	.	.	.	.	.
8B\	.	8d/	.	8a\ 8gg	.	.	.	.	.	.	.	.	.	.	.	.	.
8c#X\	.	8e/	.	8a\ 8gg	.	.	.	.	.	.	.	.	.	.	.	.	.
8c#\J	.	8e/J	.	8a\ 8ggJ	.	.	.	.	.	.	.	.	.	.	.	.	.
=51	=51	=51	=51	=51	=51	=51	=51	=51	=51	=51	=51	=51	=51	=51	=51	=51	=51
*	*	*tremolo	*	*Xtremolo	*	*	*	*	*	*	*	*	*	*	*	*	*
!LO:TX:t=P:problem=mixed beam	!	!	!	!	!	!	!	!	!	!	!	!	!	!	!	!	!
8d/L	.	8A/L	.	8ff#\L	.	2.ryy	2.ryy	8ff#\L	co-	2.r	.	2.r	.	2.r	.	2.r	.
8D/	.	8A/	.	8ff#\	.	.	.	8dd\	.	.	.	.	.	.	.	.	.
8E/	.	8A/	.	8cc#X\	.	.	.	8cc#X\	.	.	.	.	.	.	.	.	.
8E/	.	8A/	.	8cc#\	.	.	.	8ee\J	.	.	.	.	.	.	.	.	.
8F#/	.	8A/	.	8dd\	.	.	.	8dd\L	-le	.	.	.	.	.	.	.	.
8F#/J	.	8A/J	.	8dd\J	.	.	.	8ff#\J	.	.	.	.	.	.	.	.	.
!	!	!	!	!LO:LB:g=original	!	!	!	!	!	!	!	!	!	!	!	!	!
=52	=52	=52	=52	=52	=52	=52	=52	=52	=52	=52	=52	=52	=52	=52	=52	=52	=52
*	*	*Xtremolo	*	*	*	*	*	*	*	*	*	*	*	*	*	*	*
!LO:TX:t=P:problem=mixed beam	!	!	!	!	!	!	!	!	!	!	!	!	!	!	!	!	!
8G\L	.	8b/L	.	8ee\L	.	2.ryy	2.ryy	8b\	de-	2.r	.	2.r	.	2.r	.	2.r	.
8G\	.	8b/	.	8ee\	.	.	.	16gg\LL	-vo-	.	.	.	.	.	.	.	.
.	.	.	.	.	.	.	.	16ee\JJ	.	.	.	.	.	.	.	.	.
8A\	.	8f#/	.	8dd\	.	.	.	4dd\	-tiſ-	.	.	.	.	.	.	.	.
8A\	.	8f#/	.	8dd\	.	.	.	.	.	.	.	.	.	.	.	.	.
8AA\	.	8e/	.	8cc#X\	.	.	.	4cc#X\	-si-	.	.	.	.	.	.	.	.
8AA\J	.	8e/J	.	8cc#\J	.	.	.	.	.	.	.	.	.	.	.	.	.
=53	=53	=53	=53	=53	=53	=53	=53	=53	=53	=53	=53	=53	=53	=53	=53	=53	=53
!	!	!	!LO:DY:t=f&colon;	!	!	!	!	!LO:SIC:s=cc#	!	!	!	!	!	!	!	!	!
.	.	.	.	.	.	.	.	4qqcc/	.	.	.	.	.	.	.	.	.
4D\	.	8f#/L	f	8dd\L	.	2.ryy	2.ryy	2dd\	-ma	4d/	.	4d/	.	8ff#\L	.	8ddd\L	.
.	.	(16f#/L	.	16a\L	.	.	.	.	.	.	.	.	.	16ff#\L	.	16aa\L	.
.	.	16g/JJ)	.	16b\JJ	.	.	.	.	.	.	.	.	.	16gg\JJ	.	16bb\JJ	.
4DD/	.	8f#/L	.	8a/L	.	.	.	.	.	8d/L	.	8d/L	.	8ff#\L	.	8aa\L	.
.	.	8f#/J	.	8a/J	.	.	.	.	.	8d/J	.	8d/J	.	8ff#\J	.	8aa\J	.
4DD/	.	4d/	.	4f#/	.	.	.	4r	.	4d/	.	4d/	.	4ff#\	.	4aa\	.
!	!	!	!	!	!	!	!	!LO:TX:t=P:problem= brak przepisanych ze źródła 11 kolejnych taktów	!	!	!	!	!	!	!	!	!
=54	=54	=54	=54	=54	=54	=54	=54	=54	=54	=54	=54	=54	=54	=54	=54	=54	=54
!	!	!	!	!	!	!	!	!LO:TX:a:t=5	!	!	!	!	!	!	!	!	!
!	!	!	!LO:DY:t=p&colon;	!	!	!	!	!	!	!	!	!	!	!	!	!	!
.	.	8qqa/	p	.	.	.	.	.	.	.	.	.	.	.	.	.	.
8C#X/L	.	4g/	.	2gg\	.	2.ryy	2.ryy	2.r	.	2.r	.	2.r	.	2.gg\	.	2.eee\	.
8AA/	.	.	.	.	.	.	.	.	.	.	.	.	.	.	.	.	.
!	!LO:DY:t=mezofor	!	!	!	!	!	!	!	!	!	!	!	!	!	!	!	!
8C#/	mf	2e/	.	.	.	.	.	.	.	.	.	.	.	.	.	.	.
8AA/	.	.	.	.	.	.	.	.	.	.	.	.	.	.	.	.	.
8C#/	.	.	.	4ee\	.	.	.	.	.	.	.	.	.	.	.	.	.
8AA/J	.	.	.	.	.	.	.	.	.	.	.	.	.	.	.	.	.
!	!	!	!	!	!	!	!	!	!	!	!	!	!	!	!	!LO:LB:g=original	!
=55	=55	=55	=55	=55	=55	=55	=55	=55	=55	=55	=55	=55	=55	=55	=55	=55	=55
8D/L	.	(8f#/L	.	(8ff#\L	.	2.ryy	2.ryy	2.r	.	2.r	.	2.r	.	4aa\	.	8fff#\L	.
8AA/	.	8d/)	.	8dd\)	.	.	.	.	.	.	.	.	.	.	.	8ddd\J	.
8E/	.	(8c#X/	.	(8cc#X\	.	.	.	.	.	.	.	.	.	4gg\	.	4ccc\	.
8AA/	.	8e/)	.	8ee\)	.	.	.	.	.	.	.	.	.	.	.	.	.
8F#/	.	8d/	.	(8dd\	.	.	.	.	.	.	.	.	.	4ff#\	.	4ddd\	.
8AA/J	.	8a/J	.	8ff#\J)	.	.	.	.	.	.	.	.	.	.	.	.	.
=56	=56	=56	=56	=56	=56	=56	=56	=56	=56	=56	=56	=56	=56	=56	=56	=56	=56
.	.	8qqa/	.	.	.	.	.	.	.	.	.	.	.	.	.	.	.
8C#X/L	.	4g/	.	2gg\	.	2.ryy	2.ryy	2.r	.	2.r	.	2.r	.	2.gg\	.	2.eee\	.
8AA/	.	.	.	.	.	.	.	.	.	.	.	.	.	.	.	.	.
8C#/	.	2e/	.	.	.	.	.	.	.	.	.	.	.	.	.	.	.
8AA/	.	.	.	.	.	.	.	.	.	.	.	.	.	.	.	.	.
8C#/	.	.	.	4ee\	.	.	.	.	.	.	.	.	.	.	.	.	.
8AA/J	.	.	.	.	.	.	.	.	.	.	.	.	.	.	.	.	.
!LO:LB:g=original	!	!	!	!	!	!	!	!	!	!	!	!	!	!	!	!	!
=57	=57	=57	=57	=57	=57	=57	=57	=57	=57	=57	=57	=57	=57	=57	=57	=57	=57
8D/L	.	(8f#/L	.	(8ff#\L	.	2.ryy	2.ryy	2.r	.	2.r	.	2.r	.	4aa\	.	4fff#\	.
8AA/	.	8d/)	.	8dd\)	.	.	.	.	.	.	.	.	.	.	.	.	.
8E/	.	(8c#X/	.	(8cc#X\	.	.	.	.	.	.	.	.	.	4gg\	.	4ccc#X\	.
8AA/	.	8e/)	.	8ee\)	.	.	.	.	.	.	.	.	.	.	.	.	.
8F#/	.	8d/	.	(8dd\	.	.	.	.	.	.	.	.	.	4ff#\	.	4ddd\	.
8AA/J	.	8a/J	.	8ff#\J)	.	.	.	.	.	.	.	.	.	.	.	.	.
!	!	!LO:LB:g=original	!	!	!	!	!	!	!	!	!	!	!	!	!	!	!
=58	=58	=58	=58	=58	=58	=58	=58	=58	=58	=58	=58	=58	=58	=58	=58	=58	=58
.	.	8qqa/	.	.	.	.	.	.	.	.	.	.	.	.	.	.	.
8C#X/L	.	4g/	.	2gg\	.	2.ryy	2.ryy	2.r	.	2.r	.	2.r	.	2.gg\	.	2.eee\	.
8AA/	.	.	.	.	.	.	.	.	.	.	.	.	.	.	.	.	.
8C#/	.	2e/	.	.	.	.	.	.	.	.	.	.	.	.	.	.	.
8AA/	.	.	.	.	.	.	.	.	.	.	.	.	.	.	.	.	.
8C#/	.	.	.	4ee\	.	.	.	.	.	.	.	.	.	.	.	.	.
8AA/J	.	.	.	.	.	.	.	.	.	.	.	.	.	.	.	.	.
=59	=59	=59	=59	=59	=59	=59	=59	=59	=59	=59	=59	=59	=59	=59	=59	=59	=59
8D/L	.	(8f#/L	.	(8ff#\L	.	2.ryy	2.ryy	8.dd\L	om-	2.r	.	2.r	.	4aa\	.	4ddd\	.
8AA/	.	8d/)	.	8dd\)	.	.	.	.	.	.	.	.	.	.	.	.	.
.	.	.	.	.	.	.	.	32cc\LL	.	.	.	.	.	.	.	.	.
.	.	.	.	.	.	.	.	32b\JJJ	.	.	.	.	.	.	.	.	.
8E/	.	(8c#X/	.	(8cc#X\	.	.	.	4a\	.	.	.	.	.	4gg\	.	4ccc#X\	.
8AA/	.	8e/)	.	8ee\)	.	.	.	.	.	.	.	.	.	.	.	.	.
8F#/	.	8d/	.	(8dd\	.	.	.	4g#X\	-ni	.	.	.	.	4ff#\	.	4ddd\	.
8AA/J	.	8f#/J	.	8ff#\J)	.	.	.	.	.	.	.	.	.	.	.	.	.
!	!	!	!	!	!	!	!	!LO:LB:g=original	!	!	!	!	!	!	!	!	!
=60	=60	=60	=60	=60	=60	=60	=60	=60	=60	=60	=60	=60	=60	=60	=60	=60	=60
*tremolo	*	*tremolo	*	*tremolo	*	*	*	*	*	*	*	*	*	*	*	*	*
8F#\L	.	8dd\L	.	8aa\L	.	2.ryy	2.ryy	8cc\L	di-	2.r	.	2.r	.	2.r	.	2.r	.
8F#\	.	8dd\	.	8aa\	.	.	.	8a\	.	.	.	.	.	.	.	.	.
8F#\	.	8dd\	.	8aa\	.	.	.	8g#X\	.	.	.	.	.	.	.	.	.
8F#\	.	8dd\	.	8aa\	.	.	.	8b\J	.	.	.	.	.	.	.	.	.
8F#\	.	8dd\	.	8aa\	.	.	.	8a\L	-ae	.	.	.	.	.	.	.	.
8F#\J	.	8dd\J	.	8aa\J	.	.	.	8cc\J	.	.	.	.	.	.	.	.	.
!	!	!	!	!LO:LB:g=original	!	!	!	!	!	!	!	!	!	!	!	!	!
=61	=61	=61	=61	=61	=61	=61	=61	=61	=61	=61	=61	=61	=61	=61	=61	=61	=61
*	*	*Xtremolo	*	*	*	*	*	*	*	*	*	*	*	*	*	*	*
!	!LO:DY:t=p&colon;	!	!	!	!	!	!	!	!	!	!	!	!	!	!	!	!
8G\L	p	8dd\L	.	8bb\L	.	2.ryy	2.ryy	8.cc\L	dic	2.r	.	2.r	.	2.r	.	2.r	.
8G\	.	8dd\J	.	8bb\	.	.	.	.	.	.	.	.	.	.	.	.	.
.	.	.	.	.	.	.	.	32b\LL	.	.	.	.	.	.	.	.	.
.	.	.	.	.	.	.	.	32a\JJJ	.	.	.	.	.	.	.	.	.
*	*	*tremolo	*	*	*	*	*	*	*	*	*	*	*	*	*	*	*
8G\	.	8ee\L	.	8bb\	.	.	.	(4g/	Ma-	.	.	.	.	.	.	.	.
8G\J	.	8ee\	.	8bb\J	.	.	.	.	.	.	.	.	.	.	.	.	.
8G\	.	8ee\	.	4bb\	.	.	.	4f#/)	.	.	.	.	.	.	.	.	.
8r	.	8ee\J	.	.	.	.	.	.	.	.	.	.	.	.	.	.	.
=62	=62	=62	=62	=62	=62	=62	=62	=62	=62	=62	=62	=62	=62	=62	=62	=62	=62
!	!LO:DY:t=f&colon;	!	!LO:DY:t=f&colon;	!	!LO:DY:t=f&colon;	!	!	!	!	!	!	!	!	!	!	!	!
8.F#\L	f	8.ff#\L	f	8.aa\L	f	2.ryy	2.ryy	8b\L	-ri-	2.r	.	2.r	.	4r	.	4r	.
.	.	.	.	.	.	.	.	8g\	.	.	.	.	.	.	.	.	.
16G\Jk	.	16ee\Jk	.	16gg\Jk	.	.	.	.	.	.	.	.	.	.	.	.	.
4A\	.	4dd\	.	4ff#\	.	.	.	8f#\	.	.	.	.	.	4ff#\	.	4ddd\	.
.	.	.	.	.	.	.	.	8a\J	.	.	.	.	.	.	.	.	.
4AA/	.	4cc#X\	.	4eeM\	.	.	.	8b\L	-ae	.	.	.	.	4ee\	.	4ccc#X\	.
.	.	.	.	.	.	.	.	8gg\J	.	.	.	.	.	.	.	.	.
!	!	!	!	!	!	!	!	!	!	!	!	!	!	!LO:LB:g=original	!	!	!
=63	=63	=63	=63	=63	=63	=63	=63	=63	=63	=63	=63	=63	=63	=63	=63	=63	=63
*	*	*Xtremolo	*	*Xtremolo	*	*	*	*	*	*	*	*	*	*	*	*	*
!	!	!	!LO:DY:t=p&colon;	!	!	!	!	!	!	!	!	!	!	!	!	!	!
!	!LO:DY:t=p&colon;	!	!	!	!	!	!	!	!	!	!	!	!	!	!	!	!
8D\L	p	4f#/	.	4dd\	.	2.ryy	2.ryy	4ee\	me-	2.r	.	2.r	.	4ff#\	.	4ddd\	.
8D\	.	.	.	.	.	.	.	.	.	.	.	.	.	.	.	.	.
!	!	!	!LO:DY:t=p&colon;	!	!	!	!	!	!	!	!	!	!	!	!	!	!
8D\	.	8r	p	8r	.	.	.	8dd\L	.	.	.	.	.	4r	.	4r	.
!	!	!	!	!	!LO:DY:t=p&colon;	!	!	!	!	!	!	!	!	!	!	!	!
8D\	.	16ff#\LL	.	(16aa\LL	p	.	.	8cc\J	.	.	.	.	.	.	.	.	.
.	.	16gg\JJ	.	16bb\JJ)	.	.	.	.	.	.	.	.	.	.	.	.	.
8D\	.	8ff#\L	.	8aa'\L	.	.	.	8b\L	-a	.	.	.	.	4ff#\	.	4aa\	.
8D\J	.	8ff#\J	.	8aa'\J	.	.	.	8a\J	.	.	.	.	.	.	.	.	.
=64	=64	=64	=64	=64	=64	=64	=64	=64	=64	=64	=64	=64	=64	=64	=64	=64	=64
*Xtremolo	*	*	*	*	*	*	*	*	*	*	*	*	*	*	*	*	*
!	!	!	!	!	!	!	!	!	!	!	!	!	!	!	!LO:DY:t=f&colon;	!	!
!	!LO:DY:t=f&colon;	!	!LO:DY:t=f&colon;	!	!	!	!	!	!	!	!	!	!	!	!	!	!
!	!	!	!	!	!LO:DY:t=for	!	!	!	!	!	!	!	!	!	!	!	!
8GG/L	f	(16ccn\LL	f	(16aa\LL	f	2.ryy	2.ryy	4g/	lau-	2.r	.	2.r	.	2gg\	f	2bb\	.
.	.	16b\J)	.	16gg\J)	.	.	.	.	.	.	.	.	.	.	.	.	.
8GG/J	.	8b\J	.	8gg`\J	.	.	.	.	.	.	.	.	.	.	.	.	.
!	!LO:DY:t=p&colon;	!	!	!	!	!	!	!	!	!	!	!	!	!	!	!	!
8GG/L	p	8r	.	8r	.	.	.	4f#/	-des.	.	.	.	.	.	.	.	.
!	!	!	!LO:DY:t=p&colon;	!	!LO:DY:t=p&colon;	!	!	!	!	!	!	!	!	!	!	!	!
8GG/	.	8g/	p	8ee\	p	.	.	.	.	.	.	.	.	.	.	.	.
!	!	!	!	!	!	!	!	!	!	!	!	!	!	!	!LO:DY:t=p&colon;	!	!
8AA/	.	8g/L	.	(16dd\LL	.	.	.	4r	.	.	.	.	.	4ee\	p	4ccc#X\	.
.	.	.	.	16cc#X\)	.	.	.	.	.	.	.	.	.	.	.	.	.
8AA/J	.	8e/J	.	(16b\	.	.	.	.	.	.	.	.	.	.	.	.	.
.	.	.	.	16a\JJ)	.	.	.	.	.	.	.	.	.	.	.	.	.
!	!	!	!	!	!	!	!	!LO:LB:g=original	!	!	!	!	!	!	!	!	!
=65	=65	=65	=65	=65	=65	=65	=65	=65	=65	=65	=65	=65	=65	=65	=65	=65	=65
*tremolo	*	*	*	*	*	*	*	*	*	*	*	*	*	*	*	*	*
8D\L	.	4f#/	.	4dd\	.	2.ryy	2.ryy	8g\L	a-	2.r	.	2.r	.	2ff#\	.	2ddd\	.
8D\	.	.	.	.	.	.	.	16a\L	.	.	.	.	.	.	.	.	.
.	.	.	.	.	.	.	.	16b\JJ	.	.	.	.	.	.	.	.	.
8D\	.	8r	.	8r	.	.	.	16cc\LL	.	.	.	.	.	.	.	.	.
.	.	.	.	.	.	.	.	16dd\	.	.	.	.	.	.	.	.	.
8D\	.	16ff#\LL	.	16aa\LL	.	.	.	16ee\	.	.	.	.	.	.	.	.	.
.	.	16gg\JJ	.	16bb\JJ	.	.	.	16ff#\JJ	.	.	.	.	.	.	.	.	.
8D\	.	8ff#\L	.	8aa\L	.	.	.	8.gg\L	.	.	.	.	.	4ff#\	.	4aa\	.
8D\J	.	8ff#\J	.	8aa\J	.	.	.	.	.	.	.	.	.	.	.	.	.
.	.	.	.	.	.	.	.	16ffn\Jk	.	.	.	.	.	.	.	.	.
=66	=66	=66	=66	=66	=66	=66	=66	=66	=66	=66	=66	=66	=66	=66	=66	=66	=66
*Xtremolo	*	*	*	*	*	*	*	*	*	*	*	*	*	*	*	*	*
!	!	!	!	!	!	!	!	!	!	!	!	!	!	!	!LO:DY:t=f&colon;	!	!
!	!LO:DY:t=f&colon;	!	!LO:DY:t=f&colon;	!	!LO:DY:t=f&colon;	!	!	!	!	!	!	!	!	!	!	!	!
8GG/L	f	(16ccn\LL	f	(16aa\LL	f	2.ryy	2.ryy	16ee\LL	.	2.r	.	2.r	.	2gg\	f	2bb\	.
.	.	16b\J)	.	16gg\J)	.	.	.	16ff#\	.	.	.	.	.	.	.	.	.
8GG/J	.	8b`\J	.	8gg`\J	.	.	.	16ee\	.	.	.	.	.	.	.	.	.
.	.	.	.	.	.	.	.	16dd#X\JJ	.	.	.	.	.	.	.	.	.
!	!LO:DY:t=p&colon;	!	!	!	!	!	!	!	!	!	!	!	!	!	!	!	!
8GG/L	p	8r	.	8r	.	.	.	2ee\	.	.	.	.	.	.	.	.	.
!	!	!	!LO:DY:t=p&colon;	!	!LO:DY:t=p&colon;	!	!	!	!	!	!	!	!	!	!	!	!
8GG/	.	8g/	p	8ee\	p	.	.	.	.	.	.	.	.	.	.	.	.
8AA/	.	8g/L	.	16dd\LL	.	.	.	.	.	.	.	.	.	4ee\	.	4ccc#X\	.
.	.	.	.	16cc#X\	.	.	.	.	.	.	.	.	.	.	.	.	.
8AA/J	.	8e/J	.	16bM\	.	.	.	.	.	.	.	.	.	.	.	.	.
.	.	.	.	16a\JJ	.	.	.	.	.	.	.	.	.	.	.	.	.
!LO:LB:g=original	!	!	!	!	!	!	!	!	!	!	!	!	!	!	!	!LO:LB:g=original	!
=67	=67	=67	=67	=67	=67	=67	=67	=67	=67	=67	=67	=67	=67	=67	=67	=67	=67
*	*	*tremolo	*	*tremolo	*	*	*	*	*	*	*	*	*	*tremolo	*	*tremolo	*
!	!LO:DY:t=for	!	!LO:DY:t=f&colon;	!	!	!	!	!	!	!	!	!	!	!	!	!	!
!	!	!	!	!	!LO:DY:t=for	!	!	!	!	!	!	!	!	!	!	!	!
4D\	f	4f#/	f	4dd\	f	2.ryy	2.ryy	8ee\L	.	4d/	.	4d/	.	4ff#\	.	4ddd\	.
.	.	.	.	.	.	.	.	16ff#\L	.	.	.	.	.	.	.	.	.
.	.	.	.	.	.	.	.	16gg\JJ	.	.	.	.	.	.	.	.	.
8DD/L	.	8f#/L	.	8dd\L	.	.	.	16aa\LL	.	8d/L	.	8d/L	.	8ff#\L	.	8ddd\L	.
.	.	.	.	.	.	.	.	16gg\	.	.	.	.	.	.	.	.	.
8DD/	.	8f#/	.	8dd\	.	.	.	16ff#\	.	8d/	.	8d/	.	8ff#\	.	8ddd\	.
.	.	.	.	.	.	.	.	16ee\JJ	.	.	.	.	.	.	.	.	.
8DD/	.	8f#/	.	8dd\	.	.	.	16ff#\LL	.	8d/	.	8d/	.	8ff#\	.	8ddd\	.
.	.	.	.	.	.	.	.	16ee\	.	.	.	.	.	.	.	.	.
8DD/J	.	8f#/J	.	8dd\J	.	.	.	16dd\	.	8d/J	.	8d/J	.	8ff#\J	.	8ddd\J	.
.	.	.	.	.	.	.	.	16cc#X\JJ	.	.	.	.	.	.	.	.	.
!	!	!LO:LB:g=original	!	!	!	!	!	!	!	!	!	!	!	!	!	!	!
=68	=68	=68	=68	=68	=68	=68	=68	=68	=68	=68	=68	=68	=68	=68	=68	=68	=68
2DD/	.	2f#/	.	4dd\	.	2.ryy	2.ryy	16dd\LL	.	2d/	.	2d/	.	2ff#\	.	2ddd\	.
.	.	.	.	.	.	.	.	16ee\	.	.	.	.	.	.	.	.	.
.	.	.	.	.	.	.	.	16dd\	.	.	.	.	.	.	.	.	.
.	.	.	.	.	.	.	.	16cc\JJ	.	.	.	.	.	.	.	.	.
.	.	.	.	4r	.	.	.	2dd\	.	.	.	.	.	.	.	.	.
4r	.	4r	.	4r	.	.	.	.	.	4r	.	4r	.	4r	.	4r	.
!	!	!	!	!LO:LB:g=original	!	!	!	!LO:LB:g=original	!	!	!	!	!	!	!	!	!
=69	=69	=69	=69	=69	=69	=69	=69	=69	=69	=69	=69	=69	=69	=69	=69	=69	=69
!	!	!	!	!	!LO:DY:t=p&colon;	!	!	!	!	!LO:TX:a:t=14	!	!	!	!	!	!	!
4r	.	4r	.	4r	p	2.ryy	2.ryy	8dd\L	.	2.r	.	2.r	.	2.r	.	2.r	.
.	.	.	.	.	.	.	.	16ee\L	.	.	.	.	.	.	.	.	.
.	.	.	.	.	.	.	.	16ff#\JJ	.	.	.	.	.	.	.	.	.
4G#X\	.	4B/	.	4e/ 4dd	.	.	.	16gg\LL	.	.	.	.	.	.	.	.	.
.	.	.	.	.	.	.	.	16ff#\	.	.	.	.	.	.	.	.	.
.	.	.	.	.	.	.	.	16ee\	.	.	.	.	.	.	.	.	.
.	.	.	.	.	.	.	.	16dd\JJ	.	.	.	.	.	.	.	.	.
4G#\	.	4B/	.	4e/ 4dd	.	.	.	16ee\LL	.	.	.	.	.	.	.	.	.
.	.	.	.	.	.	.	.	16dd\	.	.	.	.	.	.	.	.	.
.	.	.	.	.	.	.	.	16ccn\	.	.	.	.	.	.	.	.	.
.	.	.	.	.	.	.	.	16b\JJ	.	.	.	.	.	.	.	.	.
=70	=70	=70	=70	=70	=70	=70	=70	=70	=70	=70	=70	=70	=70	=70	=70	=70	=70
*	*	*	*	*Xtremolo	*	*	*	*	*	*	*	*	*	*	*	*	*
8A\L	.	8e/L	.	8cc\L	.	2.ryy	2.ryy	16cc\LL	.	2.r	.	2.r	.	2.r	.	2.r	.
.	.	.	.	.	.	.	.	16dd\	.	.	.	.	.	.	.	.	.
8A\	.	8e/	.	8cc\	.	.	.	16cc\	.	.	.	.	.	.	.	.	.
.	.	.	.	.	.	.	.	16b\JJ	.	.	.	.	.	.	.	.	.
8B\	.	8e/	.	8gg#X\	.	.	.	2cc\	.	.	.	.	.	.	.	.	.
8B\	.	8e/	.	8gg#\	.	.	.	.	.	.	.	.	.	.	.	.	.
8c\	.	8e/	.	8aa\	.	.	.	.	.	.	.	.	.	.	.	.	.
8c\J	.	8e/J	.	8aa\J	.	.	.	.	.	.	.	.	.	.	.	.	.
=71	=71	=71	=71	=71	=71	=71	=71	=71	=71	=71	=71	=71	=71	=71	=71	=71	=71
4r	.	4r	.	4r	.	2.ryy	2.ryy	8cc\L	.	2.r	.	2.r	.	2.r	.	2.r	.
.	.	.	.	.	.	.	.	16dd\L	.	.	.	.	.	.	.	.	.
.	.	.	.	.	.	.	.	16ee\JJ	.	.	.	.	.	.	.	.	.
4F#\	.	4e/	.	4cc\	.	.	.	16ff#\LL	.	.	.	.	.	.	.	.	.
.	.	.	.	.	.	.	.	16gg\	.	.	.	.	.	.	.	.	.
.	.	.	.	.	.	.	.	16aa\	.	.	.	.	.	.	.	.	.
.	.	.	.	.	.	.	.	16gg\JJ	.	.	.	.	.	.	.	.	.
4F#\	.	4e-X/	.	4cc\	.	.	.	16ff#\LL	.	.	.	.	.	.	.	.	.
.	.	.	.	.	.	.	.	16ee\	.	.	.	.	.	.	.	.	.
.	.	.	.	.	.	.	.	16dd\	.	.	.	.	.	.	.	.	.
.	.	.	.	.	.	.	.	16cc\JJ	.	.	.	.	.	.	.	.	.
=72	=72	=72	=72	=72	=72	=72	=72	=72	=72	=72	=72	=72	=72	=72	=72	=72	=72
8G\L	.	8d/L	.	8b\L	.	2.ryy	2.ryy	8b\L	.	2.r	.	2.r	.	2.r	.	2.r	.
8G\	.	8d/	.	8b\	.	.	.	8gg\	.	.	.	.	.	.	.	.	.
8A\	.	8d/	.	8ff#\	.	.	.	8ff#\	.	.	.	.	.	.	.	.	.
8A\	.	8d/	.	8ff#\	.	.	.	8aa\	.	.	.	.	.	.	.	.	.
8B\	.	8d/	.	8gg\	.	.	.	8gg\	.	.	.	.	.	.	.	.	.
8B\J	.	8d/J	.	8gg\J	.	.	.	8dd\J	.	.	.	.	.	.	.	.	.
!	!	!	!	!	!	!	!	!LO:LB:g=original	!	!	!	!	!	!	!	!	!
=73	=73	=73	=73	=73	=73	=73	=73	=73	=73	=73	=73	=73	=73	=73	=73	=73	=73
*	*	*	*	*tremolo	*	*	*	*	*	*	*	*	*	*	*	*	*
!LO:TX:t=P:problem=mixed beam	!	!	!	!	!	!	!	!	!	!	!	!	!	!	!	!	!
8c/L	.	8g/L	.	8ee\L	.	2.ryy	2.ryy	8.dd\L	.	2.r	.	2.r	.	2.r	.	2.r	.
8C/	.	8g/	.	8ee\	.	.	.	.	.	.	.	.	.	.	.	.	.
.	.	.	.	.	.	.	.	16cc\Jk	.	.	.	.	.	.	.	.	.
8C/	.	8g/	.	8ee\	.	.	.	4b\	.	.	.	.	.	.	.	.	.
8C/	.	8g/J	.	8ee\	.	.	.	.	.	.	.	.	.	.	.	.	.
8C/	.	8g/L	.	8ee\	.	.	.	4a\	-ni-	.	.	.	.	.	.	.	.
8C#X/J	.	8g/J	.	8ee\J	.	.	.	.	.	.	.	.	.	.	.	.	.
=74	=74	=74	=74	=74	=74	=74	=74	=74	=74	=74	=74	=74	=74	=74	=74	=74	=74
*	*	*Xtremolo	*	*Xtremolo	*	*	*	*	*	*	*	*	*	*	*	*	*
!LO:TX:t=P:problem=mixed beam	!	!	!	!	!	!	!	!	!	!	!	!	!	!	!	!	!
.	.	.	.	.	.	.	.	4qqa/	.	.	.	.	.	.	.	.	.
8D\L	f	8b\L	.	8gg\L	.	2.ryy	2.ryy	2g\	-ma	2.r	.	2.r	.	2.r	.	2.r	.
8d\	.	8b\	.	8gg\J	.	.	.	.	.	.	.	.	.	.	.	.	.
!	!	!	!LO:DY:t=f&colon;	!	!LO:DY:t=f&colon;	!	!	!	!	!	!	!	!	!	!	!	!
8d\	.	8a\	f	8ff#\L	f	.	.	.	.	.	.	.	.	.	.	.	.
8d\	.	8a\	.	8ff#\	.	.	.	.	.	.	.	.	.	.	.	.	.
8c#X\	.	8a\	.	8ff#\	.	.	.	4r	.	.	.	.	.	.	.	.	.
8c#\J	.	8a\J	.	8ff#\J	.	.	.	.	.	.	.	.	.	.	.	.	.
=75	=75	=75	=75	=75	=75	=75	=75	=75	=75	=75	=75	=75	=75	=75	=75	=75	=75
*tremolo	*	*tremolo	*	*tremolo	*	*	*	*	*	*	*	*	*	*	*	*	*
8B\L	.	8b/L	.	8gg`\L	.	2.ryy	2.ryy	2cc\	e-	2.r	.	2.r	.	2.r	.	2.r	.
!	!	!	!	!	!LO:DY:t=p&colon;	!	!	!	!	!	!	!	!	!	!	!	!
8B\	.	8g/J	.	8dd\J	p	.	.	.	.	.	.	.	.	.	.	.	.
8B\	.	8g/L	.	8dd\L	.	.	.	.	.	.	.	.	.	.	.	.	.
8B\	.	8g/	.	8dd\	.	.	.	.	.	.	.	.	.	.	.	.	.
8B\	.	8g/	.	8dd\	.	.	.	4a\	-jus	.	.	.	.	.	.	.	.
8B\J	.	8g/J	.	8dd\J	.	.	.	.	.	.	.	.	.	.	.	.	.
=76	=76	=76	=76	=76	=76	=76	=76	=76	=76	=76	=76	=76	=76	=76	=76	=76	=76
8c\L	.	8g/L	.	8ee\L	.	2.ryy	2.ryy	8b\L	fes-	2.r	.	2.r	.	2.r	.	2.r	.
8c\	.	8g/	.	8ee\	.	.	.	8g\	.	.	.	.	.	.	.	.	.
8c\	.	8g/	.	8ee\	.	.	.	8f#\	.	.	.	.	.	.	.	.	.
8c\	.	8g/J	.	8ee\	.	.	.	8a\J	.	.	.	.	.	.	.	.	.
8c\	.	8g#X/L	.	8ee\	.	.	.	8g\L	-ta	.	.	.	.	.	.	.	.
8c\J	.	8g#X/J	.	8ee\J	.	.	.	8dd\J	.	.	.	.	.	.	.	.	.
!LO:LB:g=original	!	!	!	!	!	!	!	!	!	!	!	!	!	!	!	!	!
=77	=77	=77	=77	=77	=77	=77	=77	=77	=77	=77	=77	=77	=77	=77	=77	=77	=77
.	.	.	.	.	.	.	.	4qqdd/	.	.	.	.	.	.	.	.	.
8F#\L	.	8a/L	.	8ee\L	.	2.ryy	2.ryy	2cc\	e-	2.r	.	2.r	.	2.r	.	2.r	.
8F#\	.	8a/	.	8ee\	.	.	.	.	.	.	.	.	.	.	.	.	.
8F#\	.	8a/	.	8ee\	.	.	.	.	.	.	.	.	.	.	.	.	.
8F#\	.	8a/	.	8ee\	.	.	.	.	.	.	.	.	.	.	.	.	.
8F#\	.	8a/	.	8ee\	.	.	.	4a\	-jus	.	.	.	.	.	.	.	.
8F#\J	.	8a/J	.	8ee\J	.	.	.	.	.	.	.	.	.	.	.	.	.
=78	=78	=78	=78	=78	=78	=78	=78	=78	=78	=78	=78	=78	=78	=78	=78	=78	=78
8B\L	.	8a/L	.	8dd\L	.	2.ryy	2.ryy	8b\L	ges-	2.r	.	2.r	.	2.r	.	2.r	.
8B\	.	8a/	.	8dd\	.	.	.	8g\	.	.	.	.	.	.	.	.	.
8B\	.	8a/	.	8dd\	.	.	.	8f#\	.	.	.	.	.	.	.	.	.
8B\	.	8a/J	.	8dd\	.	.	.	8a\J	.	.	.	.	.	.	.	.	.
8B\	.	8f#/L	.	8dd\	.	.	.	8g\L	.	.	.	.	.	.	.	.	.
8B\J	.	8f#/J	.	8dd\J	.	.	.	8dd\J	-ta	.	.	.	.	.	.	.	.
!	!	!	!	!	!	!	!	!LO:LB:g=original	!	!	!	!	!	!	!	!	!
=79	=79	=79	=79	=79	=79	=79	=79	=79	=79	=79	=79	=79	=79	=79	=79	=79	=79
.	.	.	.	.	.	.	.	4qqdd/	.	.	.	.	.	.	.	.	.
8E\L	.	8g/L	.	8dd\L	.	2.ryy	2.ryy	2cc\	co-	2.r	.	2.r	.	2.r	.	2.r	.
8E\	.	8g/	.	8dd\	.	.	.	.	.	.	.	.	.	.	.	.	.
8E\	.	8g/	.	8dd\	.	.	.	.	.	.	.	.	.	.	.	.	.
8E\	.	8g/	.	8dd\	.	.	.	.	.	.	.	.	.	.	.	.	.
8E\	.	8g/	.	8dd\	.	.	.	4a\	-le	.	.	.	.	.	.	.	.
8E\J	.	8g/J	.	8dd\J	.	.	.	.	.	.	.	.	.	.	.	.	.
=80	=80	=80	=80	=80	=80	=80	=80	=80	=80	=80	=80	=80	=80	=80	=80	=80	=80
8A\L	.	8g/L	.	8cc\L	.	2.ryy	2.ryy	8g\L	de-	2.r	.	2.r	.	2.r	.	2.r	.
8A\	.	8g/	.	8cc\	.	.	.	8gg\J	.	.	.	.	.	.	.	.	.
8A\	.	8g/	.	8cc\	.	.	.	8gg\L	.	.	.	.	.	.	.	.	.
8A\	.	8g/J	.	8cc\	.	.	.	16aa\L	.	.	.	.	.	.	.	.	.
.	.	.	.	.	.	.	.	16gg\JJ	.	.	.	.	.	.	.	.	.
*	*	*Xtremolo	*	*	*	*	*	*	*	*	*	*	*	*	*	*	*
8A\	.	8e/L	.	8cc\	.	.	.	16gg\LL	.	.	.	.	.	.	.	.	.
.	.	.	.	.	.	.	.	16ffn\	.	.	.	.	.	.	.	.	.
8A\J	.	8e/J	.	8cc\J	.	.	.	16ee\	.	.	.	.	.	.	.	.	.
.	.	.	.	.	.	.	.	16ff\JJ	.	.	.	.	.	.	.	.	.
!	!	!LO:LB:g=original	!	!LO:LB:g=original	!	!	!	!	!	!	!	!	!	!	!	!	!
=81	=81	=81	=81	=81	=81	=81	=81	=81	=81	=81	=81	=81	=81	=81	=81	=81	=81
8D\L	.	8f#/L	.	8cc\L	.	2.ryy	2.ryy	16ee\LL	.	2.r	.	2.r	.	2.r	.	2.r	.
.	.	.	.	.	.	.	.	16dd#X\	.	.	.	.	.	.	.	.	.
8D\	.	8f#/	.	8cc\	.	.	.	16ee\	.	.	.	.	.	.	.	.	.
.	.	.	.	.	.	.	.	16dd#\JJ	.	.	.	.	.	.	.	.	.
8D\	.	8f#/	.	8cc\	.	.	.	16ee\LL	.	.	.	.	.	.	.	.	.
.	.	.	.	.	.	.	.	16dd#\	.	.	.	.	.	.	.	.	.
8D\	.	8f#/	.	8cc\	.	.	.	16ee\	.	.	.	.	.	.	.	.	.
.	.	.	.	.	.	.	.	16dd#\JJ	.	.	.	.	.	.	.	.	.
8D\	.	8f#/	.	8cc\	.	.	.	16ee\LL	.	.	.	.	.	.	.	.	.
.	.	.	.	.	.	.	.	16ff#\	.	.	.	.	.	.	.	.	.
8D\J	.	8f#/J	.	8cc\J	.	.	.	16gg\	.	.	.	.	.	.	.	.	.
.	.	.	.	.	.	.	.	16ee\JJ	.	.	.	.	.	.	.	.	.
=82	=82	=82	=82	=82	=82	=82	=82	=82	=82	=82	=82	=82	=82	=82	=82	=82	=82
*Xtremolo	*	*	*	*Xtremolo	*	*	*	*	*	*	*	*	*	*	*	*	*
8G\L	.	8b\L	.	8b\L	.	2.ryy	2.ryy	8.dd\L	-vo-	2.r	.	2.r	.	2.r	.	2.r	.
8G\	.	8b\	.	8gg\	.	.	.	.	.	.	.	.	.	.	.	.	.
.	.	.	.	.	.	.	.	16ee\Jk	.	.	.	.	.	.	.	.	.
8A\	.	8cc\	.	8ff#\	.	.	.	4cc\	-tiſ-	.	.	.	.	.	.	.	.
8A\	.	8cc\	.	8ff#\	.	.	.	.	.	.	.	.	.	.	.	.	.
8B\	.	8dd\	.	8gg\	.	.	.	4a\	-si-	.	.	.	.	.	.	.	.
8B\J	.	8dd\J	.	8gg\J	.	.	.	.	.	.	.	.	.	.	.	.	.
=83	=83	=83	=83	=83	=83	=83	=83	=83	=83	=83	=83	=83	=83	=83	=83	=83	=83
4r	.	4r	.	4r	.	2.ryy	2.ryy	2g\	-ma	4r	.	4r	.	4r	.	4r	.
!LO:TX:t=P:problem=mixed beam	!	!	!	!	!	!	!	!	!	!	!	!	!	!	!	!	!
8d\L	.	8b\L	.	8gg\L	.	.	.	.	.	4g\	.	4b\	.	4gg\	.	4bb\	.
8d\	.	8b\	.	8gg\	.	.	.	.	.	.	.	.	.	.	.	.	.
8D\	.	8a\	.	8ff#\	.	.	.	4r	.	4d\	.	4a\	.	4ff#\	.	4aa\	.
8D\J	.	8a\J	.	8ff#\J	.	.	.	.	.	.	.	.	.	.	.	.	.
!	!	!	!	!	!	!	!	!LO:LB:g=original	!	!	!	!	!	!	!	!	!
=84	=84	=84	=84	=84	=84	=84	=84	=84	=84	=84	=84	=84	=84	=84	=84	=84	=84
!	!	!	!LO:DY:t=f&colon;	!	!	!	!	!LO:TX:a:t=3	!	!	!	!	!	!	!	!	!
4G\	.	8b'\L	f	8gg\L	.	2.ryy	2.ryy	2.r	.	4g\	.	4g\	.	8gg\L	.	8gg\L	.
.	.	(16b\L	.	16dd\L	.	.	.	.	.	.	.	.	.	16bb\L	.	16ddd\L	.
.	.	16cc\JJ)	.	16ee\JJ	.	.	.	.	.	.	.	.	.	16ccc\JJ	.	16eee\JJ	.
4D\	.	8b\L	.	8dd\L	.	.	.	.	.	4d/	.	4a\	.	8bb\L	.	8ddd\L	.
.	.	8a\J	.	8cc\J	.	.	.	.	.	.	.	.	.	8aa\J	.	8ccc\J	.
4GG/	.	4g\	.	4b\	.	.	.	.	.	4G/	.	4g\	.	4gg\	.	4bb\	.
!	!	!	!	!	!	!	!	!	!	!	!	!LO:LB:g=original	!	!	!	!	!
=85	=85	=85	=85	=85	=85	=85	=85	=85	=85	=85	=85	=85	=85	=85	=85	=85	=85
.	.	8qqdd/	.	8qqddd/	.	.	.	.	.	.	.	.	.	.	.	.	.
8F#\L	.	2cc\	.	2ccc\	.	2.ryy	2.ryy	2.r	.	2a\	.	2cc\	.	2dd\	.	2aa\	.
8D\	.	.	.	.	.	.	.	.	.	.	.	.	.	.	.	.	.
8F#\	.	.	.	.	.	.	.	.	.	.	.	.	.	.	.	.	.
8D\	.	.	.	.	.	.	.	.	.	.	.	.	.	.	.	.	.
8F#\	.	4a\	.	4aa\	.	.	.	.	.	4d/	.	4a\	.	4aa\	.	4ccc\	.
8D\J	.	.	.	.	.	.	.	.	.	.	.	.	.	.	.	.	.
=86	=86	=86	=86	=86	=86	=86	=86	=86	=86	=86	=86	=86	=86	=86	=86	=86	=86
8G\L	.	(8b/L	.	(8bb\L	.	2.ryy	2.ryy	2.r	.	4g\	.	4b\	.	4gg\	.	4bb\	.
8D\	.	8g/)	.	8gg\)	.	.	.	.	.	.	.	.	.	.	.	.	.
8A\	.	(8f#/	.	(8ff#\	.	.	.	.	.	4d\	.	4a\	.	4cc\	.	4ff#\	.
8D\	.	8a/)	.	8aa\)	.	.	.	.	.	.	.	.	.	.	.	.	.
8B\	.	(8g/	.	(8gg\	.	.	.	.	.	4G/	.	4g\	.	4b\	.	4gg\	.
8D\J	.	8dd/J)	.	8bb\J)	.	.	.	.	.	.	.	.	.	.	.	.	.
!LO:LB:g=original	!	!	!	!	!	!	!	!	!	!LO:LB:g=original	!	!	!	!	!	!	!
=87	=87	=87	=87	=87	=87	=87	=87	=87	=87	=87	=87	=87	=87	=87	=87	=87	=87
.	.	8qqdd/	.	8qqddd/	.	.	.	.	.	.	.	.	.	.	.	.	.
8F#\L	.	2cc\	.	2ccc\	.	2.ryy	2.ryy	8g\	de-	2a\	.	2cc\	.	2dd\	.	2aa\	.
8D\	.	.	.	.	.	.	.	8g\	-vo-	.	.	.	.	.	.	.	.
8F#\	.	.	.	.	.	.	.	4g;\	-tiſ-	.	.	.	.	.	.	.	.
8D\	.	.	.	.	.	.	.	.	.	.	.	.	.	.	.	.	.
8F#\	.	4a\	.	4aa\	.	.	.	4aT\	-si-	4d/	.	4a\	.	4aa\	.	4ccc\	.
8D\J	.	.	.	.	.	.	.	.	.	.	.	.	.	.	.	.	.
!	!	!	!	!	!	!	!	!	!	!	!	!	!	!LO:LB:g=original	!	!	!
=88	=88	=88	=88	=88	=88	=88	=88	=88	=88	=88	=88	=88	=88	=88	=88	=88	=88
8G\L	.	(8b/L	.	(8bb\L	.	2.ryy	2.ryy	4g\	-ma.	4g\	.	4b\	.	4gg\	.	4bb\	.
8D\	.	8g/)	.	8gg\)	.	.	.	.	.	.	.	.	.	.	.	.	.
8A\	.	(8f#/	.	(8ff#\	.	.	.	4r	.	4d\	.	4a\	.	4cc\	.	4ff#\	.
8D\	.	8a/)	.	8aa\)	.	.	.	.	.	.	.	.	.	.	.	.	.
8B\	.	(8g/	.	(8gg\	.	.	.	4r	.	4G/	.	4g\	.	4b\	.	4gg\	.
8D\J	.	8dd/J)	.	8bb\J)	.	.	.	.	.	.	.	.	.	.	.	.	.
=89	=89	=89	=89	=89	=89	=89	=89	=89	=89	=89	=89	=89	=89	=89	=89	=89	=89
.	.	8qqdd/	.	8qqddd/	.	.	.	.	.	.	.	.	.	.	.	.	.
8F#\L	.	2cc\	.	2ccc\	.	2.ryy	2.ryy	2.r	.	2a\	.	2cc\	.	2dd\	.	2aa\	.
8D\	.	.	.	.	.	.	.	.	.	.	.	.	.	.	.	.	.
8F#\	.	.	.	.	.	.	.	.	.	.	.	.	.	.	.	.	.
8D\	.	.	.	.	.	.	.	.	.	.	.	.	.	.	.	.	.
8F#\	.	4a\	.	4aa\	.	.	.	.	.	4d\	.	4a\	.	4aa\	.	4ccc\	.
8D\J	.	.	.	.	.	.	.	.	.	.	.	.	.	.	.	.	.
=90	=90	=90	=90	=90	=90	=90	=90	=90	=90	=90	=90	=90	=90	=90	=90	=90	=90
*	*	*tremolo	*	*tremolo	*	*	*	*	*	*	*	*	*	*	*	*	*
8G\L	.	8b/L	.	8gg\L	.	2.ryy	2.ryy	2.r	.	4g\	.	4b\	.	4gg\	.	4bb\	.
8B\J	.	8g/J	.	8dd\J	.	.	.	.	.	.	.	.	.	.	.	.	.
*tremolo	*	*	*	*	*	*	*	*	*	*	*	*	*	*	*	*	*
8B\L	.	8g/L	.	8dd\L	.	.	.	.	.	4r	.	4r	.	4r	.	4r	.
8B\	.	8g/	.	8dd\	.	.	.	.	.	.	.	.	.	.	.	.	.
8B\	.	8g/	.	8dd\	.	.	.	.	.	4r	.	4r	.	4r	.	4r	.
8B\J	.	8g/J	.	8dd\J	.	.	.	.	.	.	.	.	.	.	.	.	.
!	!	!LO:LB:g=original	!	!LO:LB:g=original	!	!	!	!	!	!	!	!	!	!	!	!	!
!	!	!	!	!	!	!	!	!	!	!	!	!	!	!	!	!LO:LB:g=original	!
=91	=91	=91	=91	=91	=91	=91	=91	=91	=91	=91	=91	=91	=91	=91	=91	=91	=91
8c\L	.	8g/L	.	8dd\L	.	2.ryy	2.ryy	2.r	.	2.r	.	2.r	.	2.r	.	2.r	.
8c\	.	8g/	.	8dd\	.	.	.	.	.	.	.	.	.	.	.	.	.
8c\	.	8g/	.	8dd\	.	.	.	.	.	.	.	.	.	.	.	.	.
8c\J	.	8g/J	.	8dd\J	.	.	.	.	.	.	.	.	.	.	.	.	.
8c\	.	8g/	.	8dd\	.	.	.	.	.	.	.	.	.	.	.	.	.
8r	.	8r	.	8r	.	.	.	.	.	.	.	.	.	.	.	.	.
=92	=92	=92	=92	=92	=92	=92	=92	=92	=92	=92	=92	=92	=92	=92	=92	=92	=92
*Xtremolo	*	*Xtremolo	*	*Xtremolo	*	*	*	*	*	*	*	*	*	*	*	*	*
4r	.	4r	.	4r	.	2.ryy	2.ryy	2.r	.	4r	.	4r	.	8.bb\L	.	8.ddd\L	.
.	.	.	.	.	.	.	.	.	.	.	.	.	.	16ccc\Jk	.	16eee\Jk	.
!LO:TX:t=P:problem=mixed beam	!	!	!	!	!	!	!	!	!	!	!	!	!	!	!	!	!
8d\L	.	8b\L	.	8gg\L	.	.	.	.	.	4g\	.	4b\	.	4gg\	.	4bb\	.
8d\	.	8b\	.	8gg\	.	.	.	.	.	.	.	.	.	.	.	.	.
8D\	.	8a\	.	8ff#\	.	.	.	.	.	4d\	.	4a\	.	4ff#\	.	4aa\	.
8D\J	.	8a\J	.	8ff#\J	.	.	.	.	.	.	.	.	.	.	.	.	.
=93	=93	=93	=93	=93	=93	=93	=93	=93	=93	=93	=93	=93	=93	=93	=93	=93	=93
*	*	*	*	*tremolo	*	*	*	*	*	*	*	*	*	*	*	*	*
*	*	*	*	*^	*	*	*	*	*	*	*	*	*	*	*	*	*
!	!	!	!LO:DY:t=forte	!	!	!	!	!	!	!	!	!	!	!	!	!	!	!
!	!	!	!	!	!	!LO:DY:t=f&colon;	!	!	!	!	!	!	!	!	!	!	!	!
8G\L	.	8g'/L	f	16g\LL	4rgyy	f	2.ryy	2.ryy	2.r	.	2G/	.	4g\	.	2b\	.	2gg\	.
.	.	.	.	16gg\	.	.	.	.	.	.	.	.	.	.	.	.	.	.
16B\L	.	(16g/L	.	16g\	.	.	.	.	.	.	.	.	.	.	.	.	.	.
16c\JJ	.	16a/JJ)	.	16gg\JJ	.	.	.	.	.	.	.	.	.	.	.	.	.	.
8B\L	.	8g/L	.	16gg\LL	16g/LL	.	.	.	.	.	.	.	4r	.	.	.	.	.
.	.	.	.	16gg\	16g/	.	.	.	.	.	.	.	.	.	.	.	.	.
8B\	.	8g/	.	16gg\	16g/	.	.	.	.	.	.	.	.	.	.	.	.	.
.	.	.	.	16gg\	16g/	.	.	.	.	.	.	.	.	.	.	.	.	.
8c\	.	8a/	.	16gg\	16g/	.	.	.	.	.	4r	.	4r	.	4r	.	4r	.
.	.	.	.	16gg\	16g/	.	.	.	.	.	.	.	.	.	.	.	.	.
8c\J	.	8a/J	.	16gg\	16g/	.	.	.	.	.	.	.	.	.	.	.	.	.
.	.	.	.	16gg\JJ	16g/JJ	.	.	.	.	.	.	.	.	.	.	.	.	.
=94	=94	=94	=94	=94	=94	=94	=94	=94	=94	=94	=94	=94	=94	=94	=94	=94	=94	=94
8d\L	.	8b/L	.	16gg\LL	16g/LL	.	2.ryy	2.ryy	2.r	.	2.r	.	2.r	.	2.r	.	2.r	.
.	.	.	.	16gg\	16g/	.	.	.	.	.	.	.	.	.	.	.	.	.
16d\L	.	16b/L	.	16gg\	16g/	.	.	.	.	.	.	.	.	.	.	.	.	.
16e\JJ	.	16cc/JJ	.	16gg\	16g/	.	.	.	.	.	.	.	.	.	.	.	.	.
8d\L	.	8b/L	.	16gg\	16g/	.	.	.	.	.	.	.	.	.	.	.	.	.
.	.	.	.	16gg\	16g/	.	.	.	.	.	.	.	.	.	.	.	.	.
8d\J	.	8b/	.	16gg\	16g/	.	.	.	.	.	.	.	.	.	.	.	.	.
.	.	.	.	16gg\	16g/	.	.	.	.	.	.	.	.	.	.	.	.	.
8e\L	.	8cc/	.	16gg\	16g/	.	.	.	.	.	.	.	.	.	.	.	.	.
.	.	.	.	16gg\	16g/	.	.	.	.	.	.	.	.	.	.	.	.	.
8e\J	.	8cc/J	.	16gg\	16g/	.	.	.	.	.	.	.	.	.	.	.	.	.
.	.	.	.	16gg\JJ	16g/JJ	.	.	.	.	.	.	.	.	.	.	.	.	.
!LO:LB:g=original	!	!	!	!	!	!	!	!	!	!	!	!	!	!	!	!	!	!
=95	=95	=95	=95	=95	=95	=95	=95	=95	=95	=95	=95	=95	=95	=95	=95	=95	=95	=95
8d\L	.	8b/L	.	16gg\LL	16g/LL	.	2.ryy	2.ryy	2.r	.	2.r	.	2.r	.	2.r	.	2.r	.
.	.	.	.	16gg\	16g/	.	.	.	.	.	.	.	.	.	.	.	.	.
16d\L	.	16b/L	.	16gg\	16g/	.	.	.	.	.	.	.	.	.	.	.	.	.
16e\JJ	.	16cc/JJ	.	16gg\	16g/	.	.	.	.	.	.	.	.	.	.	.	.	.
8d\L	.	8b/L	.	16gg\	16g/	.	.	.	.	.	.	.	.	.	.	.	.	.
.	.	.	.	16gg\	16g/	.	.	.	.	.	.	.	.	.	.	.	.	.
8d\	.	8b/	.	16gg\	16g/	.	.	.	.	.	.	.	.	.	.	.	.	.
.	.	.	.	16gg\	16g/	.	.	.	.	.	.	.	.	.	.	.	.	.
8c\	.	8a/	.	16gg\	16g/	.	.	.	.	.	.	.	.	.	.	.	.	.
.	.	.	.	16gg\	16g/	.	.	.	.	.	.	.	.	.	.	.	.	.
8c\J	.	8a/J	.	16gg\	16g/	.	.	.	.	.	.	.	.	.	.	.	.	.
.	.	.	.	16gg\JJ	16g/JJ	.	.	.	.	.	.	.	.	.	.	.	.	.
=96	=96	=96	=96	=96	=96	=96	=96	=96	=96	=96	=96	=96	=96	=96	=96	=96	=96	=96
8c\L	.	(8a/L	.	16gg\LL	16g/LL	.	2.ryy	2.ryy	2.r	.	2.r	.	2.r	.	2.r	.	2.r	.
.	.	.	.	16gg\	16g/	.	.	.	.	.	.	.	.	.	.	.	.	.
8d-X\	.	8b-X/)	.	16gg\	16g/	.	.	.	.	.	.	.	.	.	.	.	.	.
.	.	.	.	16gg\	16g/	.	.	.	.	.	.	.	.	.	.	.	.	.
8c\	.	(8a/	.	16gg\	16g/	.	.	.	.	.	.	.	.	.	.	.	.	.
.	.	.	.	16gg\	16g/	.	.	.	.	.	.	.	.	.	.	.	.	.
8d-X\	.	8b-X/)	.	16gg\	16g/	.	.	.	.	.	.	.	.	.	.	.	.	.
.	.	.	.	16gg\	16g/	.	.	.	.	.	.	.	.	.	.	.	.	.
8c\	.	(8a/	.	16gg\	16g/	.	.	.	.	.	.	.	.	.	.	.	.	.
.	.	.	.	16gg\	16g/	.	.	.	.	.	.	.	.	.	.	.	.	.
8d-\J	.	8b-X/J)	.	16gg\	16g/	.	.	.	.	.	.	.	.	.	.	.	.	.
.	.	.	.	16gg\JJ	16g/JJ	.	.	.	.	.	.	.	.	.	.	.	.	.
*	*	*	*	*v	*v	*	*	*	*	*	*	*	*	*	*	*	*	*
=97	=97	=97	=97	=97	=97	=97	=97	=97	=97	=97	=97	=97	=97	=97	=97	=97	=97
2Dn;\	.	2bn;\	.	2gg\	.	2.ryy	2.ryy	2.r	.	2.r	.	2.r	.	2.r	.	2.r	.
!	!	!	!LO:DY:t=for	!	!	!	!	!	!	!	!	!	!	!	!	!	!
4r	.	4r	f	4r;	.	.	.	.	.	.	.	.	.	.	.	.	.
=98	=98	=98	=98	=98	=98	=98	=98	=98	=98	=98	=98	=98	=98	=98	=98	=98	=98
4r	.	4B/	.	4d/	.	2.ryy	2.ryy	2.r	.	4r	.	4r	.	4b\	.	4dd\	.
4GG/	.	4d/	.	4g/	.	.	.	.	.	4B/	.	4g\	.	4b\	.	4gg\	.
4G\	.	4d/	.	4b/	.	.	.	.	.	4g\	.	4b\	.	4dd\	.	4bb\	.
=99	=99	=99	=99	=99	=99	=99	=99	=99	=99	=99	=99	=99	=99	=99	=99	=99	=99
*	*	*	*	*Xtremolo	*	*	*	*	*	*	*	*	*	*	*	*Xtremolo	*
4D\	.	(8d/L	.	(8b/L	.	2.ryy	2.ryy	2.r	.	8g\L	.	(8b\L	.	(8dd\L	.	(8bb\L	.
.	.	8c/)	.	8a/)	.	.	.	.	.	8d\	.	8a\)	.	8cc\)	.	8aa\)	.
4DD/	.	(8c/	.	(8a/	.	.	.	.	.	8d\	.	(8a\	.	(8cc\	.	(8aa\	.
.	.	8B/J)	.	8g/J)	.	.	.	.	.	8B\J	.	8g\J)	.	8b\J)	.	8gg\J)	.
4GG/	.	4B/	.	4g/	.	.	.	.	.	4B\	.	4g\	.	4b\	.	4gg\	.
!	!	!LO:LB:g=original	!	!	!	!	!	!	!	!	!LO:LB:g=original	!	!	!	!	!	!
=100	=100	=100	=100	=100	=100	=100	=100	=100	=100	=100	=100	=100	=100	=100	=100	=100	=100
4r	.	4B/	.	4d/	.	2.ryy	2.ryy	2.r	.	4r	.	4r	.	4b\	.	4dd\	.
4G\	.	4b\	.	4dd\	.	.	.	.	.	4b\	.	4dd\	.	4bb\	.	4ddd\	.
4F#\	.	4a\	.	8ee\L	.	.	.	.	.	4a\	.	4cc\	.	4aa\	.	4ccc\	.
.	.	.	.	8cc\J	.	.	.	.	.	.	.	.	.	.	.	.	.
=101	=101	=101	=101	=101	=101	=101	=101	=101	=101	=101	=101	=101	=101	=101	=101	=101	=101
.	.	8qqa/	.	8qqcc/	.	.	.	.	.	.	.	.	.	8qqaa/	.	8qqccc/	.
8G\L	.	2g/	.	2b\	.	2.ryy	2.ryy	2.r	.	2g\	.	2b\	.	2gg\	.	2bb\	.
8A\	.	.	.	.	.	.	.	.	.	.	.	.	.	.	.	.	.
8B\	.	.	.	.	.	.	.	.	.	.	.	.	.	.	.	.	.
8c#X\J	.	.	.	.	.	.	.	.	.	.	.	.	.	.	.	.	.
4d\	.	4f#/	.	4a\	.	.	.	.	.	4d\	.	4a\	.	4ff#\	.	4aa\	.
!	!	!	!	!LO:LB:g=original	!	!	!	!	!	!	!	!	!	!	!	!	!
!	!	!	!	!	!	!	!	!	!	!LO:LB:g=original	!	!	!	!	!	!	!
=102	=102	=102	=102	=102	=102	=102	=102	=102	=102	=102	=102	=102	=102	=102	=102	=102	=102
4e\	.	4g/	.	4cc\	.	2.ryy	2.ryy	2.r	.	2.r	.	2.r	.	2.r	.	2.r	.
4d\	.	4f#/	.	(8cc\L	.	.	.	.	.	.	.	.	.	.	.	.	.
.	.	.	.	8b\)	.	.	.	.	.	.	.	.	.	.	.	.	.
4c\	.	4e/	.	(8b\	.	.	.	.	.	.	.	.	.	.	.	.	.
.	.	.	.	8a\J)	.	.	.	.	.	.	.	.	.	.	.	.	.
!	!	!	!	!	!	!	!	!	!	!	!	!	!	!LO:LB:g=original	!	!	!
=103	=103	=103	=103	=103	=103	=103	=103	=103	=103	=103	=103	=103	=103	=103	=103	=103	=103
4B\	.	4d/	.	4dd\	.	2.ryy	2.ryy	2.r	.	2.r	.	2.r	.	2.r	.	2.r	.
4A\	.	4c/	.	4f#/	.	.	.	.	.	.	.	.	.	.	.	.	.
4G\	.	4B/	.	4g/	.	.	.	.	.	.	.	.	.	.	.	.	.
=104	=104	=104	=104	=104	=104	=104	=104	=104	=104	=104	=104	=104	=104	=104	=104	=104	=104
4r	.	(16ee\LL	.	16gg\LL	.	2.ryy	2.ryy	2.r	.	4r	.	4r	.	4r	.	4r	.
.	.	16dd\	.	16ff#\	.	.	.	.	.	.	.	.	.	.	.	.	.
.	.	16cc\	.	16ee\	.	.	.	.	.	.	.	.	.	.	.	.	.
.	.	16b\JJ)	.	16dd\JJ	.	.	.	.	.	.	.	.	.	.	.	.	.
4F#\	.	4a/	.	4cc\	.	.	.	.	.	4a\	.	4cc\	.	4aa\	.	4ccc\	.
4G\	.	4g/	.	4b\	.	.	.	.	.	4g\	.	4b\	.	4gg\	.	4bb\	.
!LO:LB:g=original	!	!	!	!	!	!	!	!	!	!	!	!	!	!	!	!	!
=105	=105	=105	=105	=105	=105	=105	=105	=105	=105	=105	=105	=105	=105	=105	=105	=105	=105
.	.	.	.	8qqcc/	.	.	.	.	.	.	.	.	.	.	.	.	.
4D/	.	4g/	.	4b\	.	2.ryy	2.ryy	2.r	.	4g\	.	4b\	.	4gg\	.	4bb\	.
8d\L	.	4f#/	.	4a\	.	.	.	.	.	4d\	.	4a\	.	4ff#\	.	4aa\	.
8c\	.	.	.	.	.	.	.	.	.	.	.	.	.	.	.	.	.
8B\	.	4ryy	.	4r	.	.	.	.	.	4r	.	4r	.	4r	.	4r	.
8A\J	.	.	.	.	.	.	.	.	.	.	.	.	.	.	.	.	.
!	!	!	!	!	!	!	!	!	!	!	!	!	!	!	!	!LO:LB:g=original	!
=106	=106	=106	=106	=106	=106	=106	=106	=106	=106	=106	=106	=106	=106	=106	=106	=106	=106
4r	.	4B/	.	4d/	.	2.ryy	2.ryy	2.r	.	4r	.	4r	.	4b\	.	4dd\	.
4GG/	.	4B/	.	4g/	.	.	.	.	.	4B/	.	4g\	.	4b\	.	4gg\	.
4G\	.	4d/	.	4b/	.	.	.	.	.	4g\	.	4b\	.	4dd\	.	4bb\	.
=107	=107	=107	=107	=107	=107	=107	=107	=107	=107	=107	=107	=107	=107	=107	=107	=107	=107
*	*	*	*	*	*	*	*	*	*	*	*	*	*	*Xtremolo	*	*	*
4D\	.	(8d/L	.	(8b/L	.	2.ryy	2.ryy	2.r	.	8g\L	.	8b\L	.	(8dd\L	.	8bb\L	.
.	.	8c/)	.	8a/)	.	.	.	.	.	8d\	.	8a\	.	8cc\)	.	8aa\	.
4DD/	.	(8c/	.	(8a/	.	.	.	.	.	8d\	.	8a\	.	(8cc\	.	8aa\	.
.	.	8B/J)	.	8g/J)	.	.	.	.	.	8B\J	.	8g\J	.	8b\J)	.	8gg\J	.
4GG/	.	4B/	.	4g/	.	.	.	.	.	4B/	.	4g\	.	4b\	.	4gg\	.
=108	=108	=108	=108	=108	=108	=108	=108	=108	=108	=108	=108	=108	=108	=108	=108	=108	=108
4r	.	4B/	.	4d/	.	2.ryy	2.ryy	2.r	.	4r	.	4r	.	4b\	.	4dd\	.
4G\	.	4b\	.	4dd\	.	.	.	.	.	4b\	.	4dd\	.	4bb\	.	4ddd\	.
4F#\	.	4a\	.	(8ee\L	.	.	.	.	.	4a\	.	4cc\	.	4aa\	.	4ccc\	.
.	.	.	.	8cc\J)	.	.	.	.	.	.	.	.	.	.	.	.	.
=109	=109	=109	=109	=109	=109	=109	=109	=109	=109	=109	=109	=109	=109	=109	=109	=109	=109
.	.	8qqa/	.	8qqcc/	.	.	.	.	.	.	.	.	.	8qqaa/	.	8qqccc/	.
8G\L	.	2g\	.	2b\	.	2.ryy	2.ryy	2.r	.	2g\	.	2b\	.	2gg\	.	2bb\	.
8A\J	.	.	.	.	.	.	.	.	.	.	.	.	.	.	.	.	.
8B\L	.	.	.	.	.	.	.	.	.	.	.	.	.	.	.	.	.
8c#X\J	.	.	.	.	.	.	.	.	.	.	.	.	.	.	.	.	.
4d\	.	4f#\	.	4a\	.	.	.	.	.	4d/	.	4a\	.	4ff#\	.	4aa\	.
=110	=110	=110	=110	=110	=110	=110	=110	=110	=110	=110	=110	=110	=110	=110	=110	=110	=110
4e\	.	4g/	.	4cc\	.	2.ryy	2.ryy	2.r	.	2.r	.	2.r	.	2.r	.	2.r	.
4d\	.	4f#/	.	(8cc\L	.	.	.	.	.	.	.	.	.	.	.	.	.
.	.	.	.	8b\)	.	.	.	.	.	.	.	.	.	.	.	.	.
4c\	.	4e/	.	(8b\	.	.	.	.	.	.	.	.	.	.	.	.	.
.	.	.	.	8a\J)	.	.	.	.	.	.	.	.	.	.	.	.	.
=111	=111	=111	=111	=111	=111	=111	=111	=111	=111	=111	=111	=111	=111	=111	=111	=111	=111
4B\	.	4d/	.	4dd\	.	2.ryy	2.ryy	2.r	.	2.r	.	2.r	.	2.r	.	2.r	.
4A\	.	4c/	.	4f#/	.	.	.	.	.	.	.	.	.	.	.	.	.
4G\	.	4B/	.	4g/	.	.	.	.	.	.	.	.	.	.	.	.	.
=112	=112	=112	=112	=112	=112	=112	=112	=112	=112	=112	=112	=112	=112	=112	=112	=112	=112
4r	.	(16ee\LL	.	(16gg\LL	.	2.ryy	2.ryy	2.r	.	4r	.	4r	.	4r	.	4r	.
.	.	16dd\	.	16ff#\	.	.	.	.	.	.	.	.	.	.	.	.	.
.	.	16cc\	.	16ee\	.	.	.	.	.	.	.	.	.	.	.	.	.
.	.	16b\JJ)	.	16dd\JJ)	.	.	.	.	.	.	.	.	.	.	.	.	.
4F#\	.	4a/	.	4cc\	.	.	.	.	.	4a\	.	4cc\	.	4aa\	.	4ccc\	.
4G\	.	4g/	.	4b\	.	.	.	.	.	4g\	.	4b\	.	4gg\	.	4bb\	.
!	!	!LO:LB:g=original	!	!LO:LB:g=original	!	!	!	!	!	!	!	!	!	!	!	!	!
!	!	!	!	!	!	!	!	!	!	!	!	!LO:LB:g=original	!	!	!	!	!
=113	=113	=113	=113	=113	=113	=113	=113	=113	=113	=113	=113	=113	=113	=113	=113	=113	=113
.	.	.	.	8qqcc/	.	.	.	.	.	.	.	.	.	.	.	.	.
4D\	.	4g/	.	4b\	.	2.ryy	2.ryy	2.r	.	4g\	.	4b\	.	4gg\	.	4bb\	.
4AA\	.	4f#/	.	4a\	.	.	.	.	.	4d\	.	4a\	.	4ff#\	.	4aa\	.
4DD/	.	4r	.	4r	.	.	.	.	.	4r	.	4r	.	4r	.	4r	.
=114	=114	=114	=114	=114	=114	=114	=114	=114	=114	=114	=114	=114	=114	=114	=114	=114	=114
*	*	*	*	*	*	*	*	*	*	*tremolo	*	*	*	*	*	*	*
!	!	!LO:TX:t=P:problem=mixed beam	!	!LO:TX:t=P:problem=mixed beam	!	!	!	!	!	!	!	!	!	!	!	!	!
!LO:TX:a:t=4	!	!	!	!	!	!	!	!	!	!	!	!	!	!	!	!	!
!	!	!	!LO:DY:t=p&colon;	!	!LO:DY:t=p&colon;	!	!	!	!	!	!	!	!	!	!	!	!
2.r	.	8d/L	p	8d/L	p	2.ryy	2.ryy	2.r	.	4r	.	4r	.	(16a\LL	.	(16ff#\LL	.
.	.	.	.	.	.	.	.	.	.	.	.	.	.	16g\	.	16ee\	.
.	.	8dd/	.	8dd/	.	.	.	.	.	.	.	.	.	16a\	.	16ff#\	.
.	.	.	.	.	.	.	.	.	.	.	.	.	.	16b\JJ)	.	16gg\JJ)	.
.	.	8d/	.	8d/	.	.	.	.	.	8d/L	.	8d/L	.	8cc'\L	.	8aa'\L	.
.	.	8dd/	.	8dd/	.	.	.	.	.	8d/	.	8d/	.	8cc'\	.	8aa'\	.
.	.	8d/	.	8d/	.	.	.	.	.	8d/	.	8d/	.	8cc'\	.	8aa'\	.
.	.	8dd/J	.	8dd/J	.	.	.	.	.	8d/J	.	8d/J	.	8cc'\J	.	8aa'\J	.
!	!	!	!	!	!	!	!	!	!	!	!	!	!	!LO:LB:g=original	!	!	!
=115	=115	=115	=115	=115	=115	=115	=115	=115	=115	=115	=115	=115	=115	=115	=115	=115	=115
*	*	*tremolo	*	*tremolo	*	*	*	*	*	*	*	*	*	*	*	*	*
*	*	*^	*	*^	*	*	*	*	*	*	*	*	*	*	*	*	*
2.r	.	8g\L	8G/L	.	8g\L	8G/L	.	2.ryy	2.ryy	2.r	.	4r	.	4r	.	(16b\LL	.	(16gg\LL	.
.	.	.	.	.	.	.	.	.	.	.	.	.	.	.	.	16a\	.	16ff#\	.
.	.	8g\	8G/	.	8g\	8G/	.	.	.	.	.	.	.	.	.	16b\	.	16gg\	.
.	.	.	.	.	.	.	.	.	.	.	.	.	.	.	.	16cc\JJ)	.	16aa\JJ)	.
.	.	8g\	8G/	.	8g\	8G/	.	.	.	.	.	8g\L	.	8b\L	.	8dd'\L	.	8bb'\L	.
.	.	8g\	8G/	.	8g\	8G/	.	.	.	.	.	8g\	.	8b\	.	8dd'\	.	8bb'\	.
.	.	8g\	8G/	.	8g\	8G/	.	.	.	.	.	8g\	.	8b\	.	8dd'\	.	8bb'\	.
.	.	8g\J	8G/J	.	8g\J	8G/J	.	.	.	.	.	8g\J	.	8b\J	.	8dd'\J	.	8bb'\J	.
!	!	!	!	!	!	!	!	!	!	!	!	!LO:LB:g=original	!	!	!	!	!	!LO:LB:g=original	!
=116	=116	=116	=116	=116	=116	=116	=116	=116	=116	=116	=116	=116	=116	=116	=116	=116	=116	=116	=116
*	*	*	*	*	*	*	*	*	*	*	*	*tremolo	*	*tremolo	*	*	*	*	*
2.r	.	8dd\L	8d/L	.	8dd\L	8d/L	.	2.ryy	2.ryy	2.r	.	4d/	.	16a\LL	.	16ff#\LL	.	(16aa\LL	.
.	.	.	.	.	.	.	.	.	.	.	.	.	.	16g\	.	16ee\	.	16gg\	.
.	.	8dd\	8d/	.	8dd\	8d/	.	.	.	.	.	.	.	16a\	.	16ff#\	.	16aa\	.
.	.	.	.	.	.	.	.	.	.	.	.	.	.	16b\JJ	.	16gg\JJ	.	16bb\JJ)	.
.	.	8dd\	8d/	.	8dd\	8d/	.	.	.	.	.	8a\L	.	8cc\L	.	8aa\L	.	8ccc'\L	.
.	.	8dd\	8d/	.	8dd\	8d/	.	.	.	.	.	8a\	.	8cc\	.	8aa\	.	8ccc'\	.
.	.	8dd\	8d/	.	8dd\	8d/	.	.	.	.	.	8a\	.	8cc\	.	8aa\	.	8ccc'\	.
.	.	8dd\J	8d/J	.	8dd\J	8d/J	.	.	.	.	.	8a\J	.	8cc\J	.	8aa\J	.	8ccc'\J	.
*	*	*	*	*	*	*	*	*	*	*	*	*Xtremolo	*	*	*	*	*	*	*
*	*	*v	*v	*	*	*	*	*	*	*	*	*	*	*	*	*	*	*	*
=117	=117	=117	=117	=117	=117	=117	=117	=117	=117	=117	=117	=117	=117	=117	=117	=117	=117	=117
2.r	.	8G/ 8gL	.	8g\L	8G/L	.	2.ryy	2.ryy	2.r	.	16g\LL	.	16b\LL	.	16gg\LL	.	16bb\LL	.
.	.	.	.	.	.	.	.	.	.	.	16d\	.	16a\	.	16ff#\	.	16aa\	.
.	.	8G/ 8g	.	8g\	8G/	.	.	.	.	.	16g\	.	16b\	.	16gg\	.	16bb\	.
.	.	.	.	.	.	.	.	.	.	.	16a\JJ	.	16cc\JJ	.	16aa\JJ	.	16ccc\JJ	.
.	.	8G/ 8g	.	8g\	8G/	.	.	.	.	.	8b\L	.	8dd\L	.	8bb\L	.	8ddd'\L	.
.	.	8G/ 8g	.	8g\	8G/	.	.	.	.	.	8b\	.	8dd\	.	8bb\	.	8ddd'\	.
.	.	8G/ 8g	.	8g\	8G/	.	.	.	.	.	8b\	.	8dd\	.	8bb\	.	8ddd'\	.
.	.	8G/ 8gJ	.	8g\J	8G/J	.	.	.	.	.	8b\J	.	8dd\J	.	8bb\J	.	8ddd'\J	.
*	*	*	*	*v	*v	*	*	*	*	*	*	*	*	*	*	*	*	*
=118	=118	=118	=118	=118	=118	=118	=118	=118	=118	=118	=118	=118	=118	=118	=118	=118	=118
*tremolo	*	*Xtremolo	*	*Xtremolo	*	*	*	*	*	*	*	*	*	*	*	*	*
!	!LO:DY:t=p&colon;	!	!	!	!	!	!	!	!	!	!	!	!	!	!	!	!
8G\L	p	(16b\LL	.	(16gg\LL	.	2.ryy	2.ryy	2.r	.	4g\	.	4b\	.	4gg\	.	4bb\	.
.	.	16gg\)	.	16bb\)	.	.	.	.	.	.	.	.	.	.	.	.	.
8G\	.	(16gg\	.	(16bb\	.	.	.	.	.	.	.	.	.	.	.	.	.
.	.	16ff#\JJ)	.	16aa\JJ)	.	.	.	.	.	.	.	.	.	.	.	.	.
8G\	.	(16ff#\LL	.	(16aa\LL	.	.	.	.	.	4r	.	4r	.	4r	.	4r	.
.	.	16ee\)	.	16gg\)	.	.	.	.	.	.	.	.	.	.	.	.	.
8G\	.	(16ee\	.	(16gg\	.	.	.	.	.	.	.	.	.	.	.	.	.
.	.	16dd\JJ)	.	16ff#\JJ)	.	.	.	.	.	.	.	.	.	.	.	.	.
8G\	.	(16dd\LL	.	(16ff#\LL	.	.	.	.	.	4r	.	4r	.	4r	.	4r	.
.	.	16cc\)	.	16ee\)	.	.	.	.	.	.	.	.	.	.	.	.	.
8G\J	.	(16cc\	.	(16ee\	.	.	.	.	.	.	.	.	.	.	.	.	.
.	.	16b\JJ)	.	16dd\JJ)	.	.	.	.	.	.	.	.	.	.	.	.	.
=119	=119	=119	=119	=119	=119	=119	=119	=119	=119	=119	=119	=119	=119	=119	=119	=119	=119
!	!LO:DY:t=f&colon;	!	!LO:DY:t=for	!	!LO:DY:t=f&colon;	!	!	!	!	!	!	!	!	!	!	!	!
4r	f	4.b\	f	4.dd\	f	2.ryy	2.ryy	2.r	.	4.b\	.	4.dd\	.	4.bb\	.	4.ddd\	.
4D\	.	.	.	.	.	.	.	.	.	.	.	.	.	.	.	.	.
.	.	8a\	.	8cc\	.	.	.	.	.	8a\	.	8cc\	.	8aa\	.	8ccc\	.
4G\	.	8g\L	.	8b\L	.	.	.	.	.	4g\	.	4b\	.	4gg\	.	4bb\	.
.	.	8b\J	.	8gg\J	.	.	.	.	.	.	.	.	.	.	.	.	.
!LO:LB:g=original	!	!	!	!	!	!	!	!	!	!	!	!LO:LB:g=original	!	!	!	!	!
=120	=120	=120	=120	=120	=120	=120	=120	=120	=120	=120	=120	=120	=120	=120	=120	=120	=120
4C\	.	8cc\L	.	8ee\L	.	2.ryy	2.ryy	2.r	.	4a\	.	4cc\	.	8.ccc\L	.	8.eee\L	.
.	.	16b\L	.	16dd\L	.	.	.	.	.	.	.	.	.	.	.	.	.
.	.	16a\JJ	.	16cc\JJ	.	.	.	.	.	.	.	.	.	32bb\LL	.	32ddd\LL	.
.	.	.	.	.	.	.	.	.	.	.	.	.	.	32aa\JJJ	.	32ccc\JJJ	.
4D\	.	4g/	.	4b\	.	.	.	.	.	4g\	.	4b\	.	4gg\	.	4bb\	.
4D\	.	4f#/	.	4a\	.	.	.	.	.	4d\	.	4a\	.	4ff#\	.	4aa\	.
=121	=121	=121	=121	=121	=121	=121	=121	=121	=121	=121	=121	=121	=121	=121	=121	=121	=121
!LO:TX:t=P:problem=mixed beam	!	!	!	!	!	!	!	!	!	!	!	!	!	!	!	!	!
!	!LO:DY:t=p&colon;	!	!	!	!	!	!	!	!	!	!	!	!	!	!	!	!
8GG/L	p	4B/	.	4g/	.	2.ryy	2.ryy	2.r	.	4B/	.	4g\	.	4b\	.	4gg\	.
8G/	.	.	.	.	.	.	.	.	.	.	.	.	.	.	.	.	.
8GG/	.	8r	.	8r	.	.	.	.	.	4r	.	4r	.	8r	.	8r	.
!	!	!	!LO:DY:t=p&colon;	!	!LO:DY:t=p&colon;	!	!	!	!	!	!	!	!	!	!LO:DY:t=p&colon;	!	!
*	*	*	*	*	*	*	*	*	*	*	*	*	*	*Xtremolo	*	*	*
8G/	.	16b\LL	p	(16dd\LL	p	.	.	.	.	.	.	.	.	16bb\LL	p	16ddd\LL	.
!	!	!	!	!	!	!	!	!	!	!	!	!	!	!	!	!	!LO:DY:t=p&colon;
.	.	16cc\JJ	.	16ee\JJ)	.	.	.	.	.	.	.	.	.	16ccc\JJ	.	16eee\JJ	p
8GG/	.	8b\L	.	8dd`\L	.	.	.	.	.	8b\L	.	4dd\	.	8bb\L	.	8ddd\L	.
8G/J	.	8b\J	.	8dd`\J	.	.	.	.	.	8b\J	.	.	.	8bb\J	.	8ddd\J	.
=122	=122	=122	=122	=122	=122	=122	=122	=122	=122	=122	=122	=122	=122	=122	=122	=122	=122
*Xtremolo	*	*	*	*	*	*	*	*	*	*	*	*	*	*	*	*	*
!	!LO:DY:t=f&colon;	!	!LO:DY:t=f&colon;	!	!LO:DY:t=f&colon;	!	!	!	!	!	!	!	!	!	!	!	!
!	!	!	!	!	!	!	!	!	!	!	!	!	!	!	!LO:DY:t=f&colon;	!	!LO:DY:t=f&colon;
8C/L	f	16b\LL	f	(16dd\LL	f	2.ryy	2.ryy	2.r	.	8b\L	.	8dd\L	.	(16bb\LL	f	(16ddd\LL	f
.	.	16e\J	.	16cc\J)	.	.	.	.	.	.	.	.	.	16ee\J)	.	16ccc\J)	.
8C/J	.	8e\J	.	8cc`\J	.	.	.	.	.	8a\J	.	8cc\J	.	8ee`\J	.	8ccc'\J	.
!	!LO:DY:t=p&colon;	!	!	!	!	!	!	!	!	!	!	!	!	!	!	!	!
8C/L	p	8r	.	8r	.	.	.	.	.	4r	.	4r	.	8r	.	8r	.
!	!	!	!	!	!	!	!	!	!	!	!	!	!	!	!LO:DY:t=p&colon;	!	!
!	!	!	!LO:DY:t=p&colon;	!	!LO:DY:t=p&colon;	!	!	!	!	!	!	!	!	!	!	!	!LO:DY:t=p&colon;
8C/	.	8d/	p	8a/	p	.	.	.	.	.	.	.	.	8ee\	p	8aa`\	p
8D/	.	8d/L	.	16g/LL	.	.	.	.	.	4d/	.	4a\	.	(8dd\L	.	(16gg\LL	.
.	.	.	.	16f#/	.	.	.	.	.	.	.	.	.	.	.	16ff#\	.
8D/J	.	8c/J	.	16e/	.	.	.	.	.	.	.	.	.	8cc\J)	.	16ee\	.
.	.	.	.	16d/JJ	.	.	.	.	.	.	.	.	.	.	.	16dd\JJ)	.
!	!	!LO:LB:g=original	!	!LO:LB:g=original	!	!	!	!	!	!	!	!	!	!	!	!	!
!	!	!	!	!	!	!	!	!	!	!	!	!	!	!LO:LB:g=original	!	!LO:LB:g=original	!
=123	=123	=123	=123	=123	=123	=123	=123	=123	=123	=123	=123	=123	=123	=123	=123	=123	=123
!LO:TX:t=P:problem=mixed beam	!	!	!	!	!	!	!	!	!	!	!	!	!	!	!	!	!
8GG/L	.	4B/	.	4g/	.	2.ryy	2.ryy	2.r	.	4B/	.	4g\	.	4b\	.	4gg\	.
8G/	.	.	.	.	.	.	.	.	.	.	.	.	.	.	.	.	.
8GG/	.	8r	.	8r	.	.	.	.	.	4r	.	4r	.	8r	.	8r	.
!	!	!	!LO:DY:t=f&colon;	!	!LO:DY:t=p&colon;	!	!	!	!	!	!	!	!	!	!	!	!
8G/	.	16b\LL	f	(16dd\LL	p	.	.	.	.	.	.	.	.	16bb\LL	.	16ddd\LL	.
.	.	16cc\JJ	.	16ee\JJ)	.	.	.	.	.	.	.	.	.	16ccc\JJ	.	16eee\JJ	.
8GG/	.	8b\L	.	8dd'\L	.	.	.	.	.	8b\L	.	4dd\	.	8bb\L	.	8ddd\L	.
8G/J	.	8b\J	.	8dd'\J	.	.	.	.	.	8b\J	.	.	.	8bb\J	.	8ddd\J	.
=124	=124	=124	=124	=124	=124	=124	=124	=124	=124	=124	=124	=124	=124	=124	=124	=124	=124
!	!LO:DY:t=f&colon;	!	!LO:DY:t=f&colon;	!	!	!	!	!	!	!	!	!	!	!	!	!	!LO:DY:t=f&colon;
!	!	!	!	!	!	!	!	!	!	!	!	!	!	!	!LO:DY:t=f&colon;	!	!
8C/L	f	(16b/LL	f	(16dd\LL	f	2.ryy	2.ryy	2.r	.	8b\L	.	8dd\L	.	(16bb\LL	f	(16ddd\LL	f
.	.	16e/J)	.	16cc\J)	.	.	.	.	.	.	.	.	.	16ee\J)	.	16ccc\J)	.
8C/J	.	8e`/J	.	8cc`\J	.	.	.	.	.	8a\J	.	8cc\J	.	8ee\J	.	8ccc'\J	.
!	!LO:DY:t=p&colon;	!	!	!	!	!	!	!	!	!	!	!	!	!	!	!	!
8C/L	p	8r	.	8r	.	.	.	.	.	4r	.	4r	.	8r	.	8r	.
!	!	!	!LO:DY:t=p&colon;	!	!LO:DY:t=p&colon;	!	!	!	!	!	!	!	!	!	!	!	!
8C/	.	8d/	p	8a/	p	.	.	.	.	.	.	.	.	8dd\	.	8aa\	.
8D/	.	8d/L	.	(16g/LL	.	.	.	.	.	4d/	.	4a\	.	8dd\L	.	16gg\LL	.
.	.	.	.	16f#/)	.	.	.	.	.	.	.	.	.	.	.	16ff#\	.
8D/J	.	8c/J	.	(16e/	.	.	.	.	.	.	.	.	.	8cc\J	.	16ee\	.
.	.	.	.	16d/JJ)	.	.	.	.	.	.	.	.	.	.	.	16dd\JJ	.
=125	=125	=125	=125	=125	=125	=125	=125	=125	=125	=125	=125	=125	=125	=125	=125	=125	=125
*tremolo	*	*tremolo	*	*tremolo	*	*	*	*	*	*	*	*tremolo	*	*tremolo	*	*tremolo	*
4GG/	.	4B/	.	4g/	.	2.ryy	2.ryy	2.r	.	4B/	.	4g\	.	4b\	.	4gg\	.
8GG/L	.	8B/L	.	8g/L	.	.	.	.	.	8G/L	.	8g\L	.	8b\L	.	8gg\L	.
8GG/	.	8B/	.	8g/	.	.	.	.	.	8G/	.	8g\	.	8b\	.	8gg\	.
8GG/	.	8B/	.	8g/	.	.	.	.	.	8G/	.	8g\	.	8b\	.	8gg\	.
8GG/J	.	8B/J	.	8g/J	.	.	.	.	.	8G/J	.	8g\J	.	8b\J	.	8gg\J	.
*	*	*	*	*	*	*	*	*	*	*	*	*	*	*	*	*Xtremolo	*
*	*	*	*	*	*	*	*	*	*	*	*	*	*	*Xtremolo	*	*	*
*	*	*	*	*	*	*	*	*	*	*	*	*Xtremolo	*	*	*	*	*
*	*	*	*	*Xtremolo	*	*	*	*	*	*	*	*	*	*	*	*	*
*	*	*Xtremolo	*	*	*	*	*	*	*	*	*	*	*	*	*	*	*
*Xtremolo	*	*	*	*	*	*	*	*	*	*	*	*	*	*	*	*	*
=126	=126	=126	=126	=126	=126	=126	=126	=126	=126	=126	=126	=126	=126	=126	=126	=126	=126
2GG/	.	2B/	.	2g/	.	2.ryy	2.ryy	2.r	.	2G/	.	2g\	.	2b\	.	2gg\	.
!LO:TX:a:t=SuB\nCoro	!	!LO:TX:a:t=SuB Coro	!	!LO:TX:a:t=SuB Coro	!	!	!	!	!	!LO:TX:a:t=il fine fiy&colon;	!	!LO:TX:a:t=il fine	!	!LO:TX:a:t=il fine	!	!LO:TX:a:t=il fine	!
4r	.	4r	.	4r	.	.	.	.	.	4r	.	4r	.	4r	.	4r	.
==	==	==	==	==	==	==	==	==	==	==	==	==	==	==	==	==	==
=127	=127	=127	=127	=127	=127	=127	=127	=127	=127	=127	=127	=127	=127	=127	=127	=127	=127
*yyM43/8	*	*yyM43/8	*	*yyM43/8	*	*yyM43/8	*yyM43/8	*yyM43/8	*	*yyM43/8	*	*yyM43/8	*	*yyM43/8	*	*yyM43/8	*
!LO:TX:t=P:problem=partia kończy się w t. 126	!	!LO:TX:t=P:problem=partia kończy się w t. 126	!	!LO:TX:t=P:problem=partia kończy się w t. 126	!	!	!	!	!	!LO:TX:t=P:problem=partia kończy się w t. 126	!	!LO:TX:t=P:problem=partia kończy się w t. 126	!	!LO:TX:t=P:problem=partia kończy się w t. 126	!	!LO:TX:t=P:problem=partia kończy się w t. 126	!
!	!	!	!	!	!	!	!	!LO:TX:t=P:problem=problem poniższe takty - na źródle dopisane pod ostatnim systemem	!	!	!	!	!	!	!	!	!
8%43ryy	.	8%43ryy	.	8%43ryy	.	8%43ryy	8%43ryy	8g\L	.	8%43ryy	.	8%43ryy	.	8%43ryy	.	8%43ryy	.
.	.	.	.	.	.	.	.	8a\	.	.	.	.	.	.	.	.	.
.	.	.	.	.	.	.	.	8b\	.	.	.	.	.	.	.	.	.
.	.	.	.	.	.	.	.	8cc\	.	.	.	.	.	.	.	.	.
.	.	.	.	.	.	.	.	8dd\	.	.	.	.	.	.	.	.	.
.	.	.	.	.	.	.	.	8ee\	.	.	.	.	.	.	.	.	.
.	.	.	.	.	.	.	.	8ff#\	.	.	.	.	.	.	.	.	.
.	.	.	.	.	.	.	.	8gg\	.	.	.	.	.	.	.	.	.
.	.	.	.	.	.	.	.	8ff#\	.	.	.	.	.	.	.	.	.
.	.	.	.	.	.	.	.	8ee\	.	.	.	.	.	.	.	.	.
.	.	.	.	.	.	.	.	8dd\	.	.	.	.	.	.	.	.	.
.	.	.	.	.	.	.	.	8cc#X\J	.	.	.	.	.	.	.	.	.
.	.	.	.	.	.	.	.	8qqee;/	.	.	.	.	.	.	.	.	.
.	.	.	.	.	.	.	.	8dd;\L	.	.	.	.	.	.	.	.	.
.	.	.	.	.	.	.	.	8dd\	.	.	.	.	.	.	.	.	.
.	.	.	.	.	.	.	.	8ee\	.	.	.	.	.	.	.	.	.
.	.	.	.	.	.	.	.	8ff#\	.	.	.	.	.	.	.	.	.
.	.	.	.	.	.	.	.	8gg\	.	.	.	.	.	.	.	.	.
.	.	.	.	.	.	.	.	8aa\	.	.	.	.	.	.	.	.	.
.	.	.	.	.	.	.	.	8bb\	.	.	.	.	.	.	.	.	.
.	.	.	.	.	.	.	.	8ccc\	.	.	.	.	.	.	.	.	.
.	.	.	.	.	.	.	.	8ddd\	.	.	.	.	.	.	.	.	.
.	.	.	.	.	.	.	.	8ccc\	.	.	.	.	.	.	.	.	.
.	.	.	.	.	.	.	.	8bb\	.	.	.	.	.	.	.	.	.
.	.	.	.	.	.	.	.	8aa\	.	.	.	.	.	.	.	.	.
.	.	.	.	.	.	.	.	8gg\	.	.	.	.	.	.	.	.	.
.	.	.	.	.	.	.	.	8ff#\	.	.	.	.	.	.	.	.	.
.	.	.	.	.	.	.	.	8ee\	.	.	.	.	.	.	.	.	.
.	.	.	.	.	.	.	.	8dd\	.	.	.	.	.	.	.	.	.
.	.	.	.	.	.	.	.	8cc#X\	.	.	.	.	.	.	.	.	.
.	.	.	.	.	.	.	.	8qqee/	.	.	.	.	.	.	.	.	.
.	.	.	.	.	.	.	.	8dd\	.	.	.	.	.	.	.	.	.
.	.	.	.	.	.	.	.	8dd;\J	.	.	.	.	.	.	.	.	.
.	.	.	.	.	.	.	.	16dd\LL	.	.	.	.	.	.	.	.	.
.	.	.	.	.	.	.	.	16cc#\	.	.	.	.	.	.	.	.	.
.	.	.	.	.	.	.	.	16ee\	.	.	.	.	.	.	.	.	.
.	.	.	.	.	.	.	.	16cc#\	.	.	.	.	.	.	.	.	.
.	.	.	.	.	.	.	.	16b\	.	.	.	.	.	.	.	.	.
.	.	.	.	.	.	.	.	16a\	.	.	.	.	.	.	.	.	.
.	.	.	.	.	.	.	.	16cc#\	.	.	.	.	.	.	.	.	.
.	.	.	.	.	.	.	.	16a\	.	.	.	.	.	.	.	.	.
.	.	.	.	.	.	.	.	16g\	.	.	.	.	.	.	.	.	.
.	.	.	.	.	.	.	.	16f#\	.	.	.	.	.	.	.	.	.
.	.	.	.	.	.	.	.	16a\	.	.	.	.	.	.	.	.	.
.	.	.	.	.	.	.	.	16f#\JJ	.	.	.	.	.	.	.	.	.
.	.	.	.	.	.	.	.	4d/	.	.	.	.	.	.	.	.	.
.	.	.	.	.	.	.	.	4aT\	.	.	.	.	.	.	.	.	.
.	.	.	.	.	.	.	.	16qqg/LL	.	.	.	.	.	.	.	.	.
!	!	!	!	!	!	!	!	!LO:TX:a:t=Seque Choro	!	!	!	!	!	!	!	!	!
.	.	.	.	.	.	.	.	16qqa/JJ	.	.	.	.	.	.	.	.	.
.	.	.	.	.	.	.	.	4g\	.	.	.	.	.	.	.	.	.
=128	=128	=128	=128	=128	=128	=128	=128	=128	=128	=128	=128	=128	=128	=128	=128	=128	=128
*yyM35/8	*	*yyM35/8	*	*Myy35/8	*	*yyM35/8	*yyM35/8	*yyM35/8	*	*yyM35/8	*	*yyM35/8	*	*yyM35/8	*	*yyM35/8	*
8%35ryy	.	8%35ryy	.	8%35ryy	.	8%35ryy	8%35ryy	8g\	de-	8%35ryy	.	8%35ryy	.	8%35ryy	.	8%35ryy	.
.	.	.	.	.	.	.	.	8g\	-vo-	.	.	.	.	.	.	.	.
.	.	.	.	.	.	.	.	8g\L	-tiſ-	.	.	.	.	.	.	.	.
.	.	.	.	.	.	.	.	8e\	.	.	.	.	.	.	.	.	.
.	.	.	.	.	.	.	.	8g\J	.	.	.	.	.	.	.	.	.
.	.	.	.	.	.	.	.	8b\L	.	.	.	.	.	.	.	.	.
.	.	.	.	.	.	.	.	8g\	.	.	.	.	.	.	.	.	.
.	.	.	.	.	.	.	.	8b\J	.	.	.	.	.	.	.	.	.
.	.	.	.	.	.	.	.	8dd\L	.	.	.	.	.	.	.	.	.
.	.	.	.	.	.	.	.	8b\	.	.	.	.	.	.	.	.	.
.	.	.	.	.	.	.	.	8dd\J	.	.	.	.	.	.	.	.	.
.	.	.	.	.	.	.	.	8gg\L	.	.	.	.	.	.	.	.	.
.	.	.	.	.	.	.	.	8bb\J	.	.	.	.	.	.	.	.	.
.	.	.	.	.	.	.	.	8aa\L	.	.	.	.	.	.	.	.	.
.	.	.	.	.	.	.	.	8bb\J	.	.	.	.	.	.	.	.	.
.	.	.	.	.	.	.	.	8gg\L	.	.	.	.	.	.	.	.	.
.	.	.	.	.	.	.	.	8aa\J	.	.	.	.	.	.	.	.	.
.	.	.	.	.	.	.	.	8ff#\L	.	.	.	.	.	.	.	.	.
.	.	.	.	.	.	.	.	8gg\J	.	.	.	.	.	.	.	.	.
.	.	.	.	.	.	.	.	8ee\L	.	.	.	.	.	.	.	.	.
.	.	.	.	.	.	.	.	8ff#\J	.	.	.	.	.	.	.	.	.
.	.	.	.	.	.	.	.	8dd\L	.	.	.	.	.	.	.	.	.
.	.	.	.	.	.	.	.	8ee\J	.	.	.	.	.	.	.	.	.
.	.	.	.	.	.	.	.	8cc\L	.	.	.	.	.	.	.	.	.
.	.	.	.	.	.	.	.	8dd\J	.	.	.	.	.	.	.	.	.
.	.	.	.	.	.	.	.	8b\L	.	.	.	.	.	.	.	.	.
.	.	.	.	.	.	.	.	8cc\J	.	.	.	.	.	.	.	.	.
.	.	.	.	.	.	.	.	8a\L	.	.	.	.	.	.	.	.	.
.	.	.	.	.	.	.	.	8b\J	.	.	.	.	.	.	.	.	.
.	.	.	.	.	.	.	.	16g\LL	.	.	.	.	.	.	.	.	.
.	.	.	.	.	.	.	.	16b\	.	.	.	.	.	.	.	.	.
.	.	.	.	.	.	.	.	16dd\	.	.	.	.	.	.	.	.	.
.	.	.	.	.	.	.	.	16b\JJ	-ſi-	.	.	.	.	.	.	.	.
.	.	.	.	.	.	.	.	4aT\	.	.	.	.	.	.	.	.	.
.	.	.	.	.	.	.	.	4g\	-ma	.	.	.	.	.	.	.	.
==	==	==	==	==	==	==	==	==	==	==	==	==	==	==	==	==	==
*-	*-	*-	*-	*-	*-	*-	*-	*-	*-	*-	*-	*-	*-	*-	*-	*-	*-
!!!system-decoration: [(s1,s2)][(s3,s4)][(s5,s6,s7)][(s8,s9,s10)]
!!!ENC: Marcin Jachim
!!!END: 2020-10-06
!!!ENC: Jan Barakat
!!!END: 2022-01-29
!!!YEC: Copyright 2022 Narodowy Instytut Fryderyka Chopina (https://polishscores.org)
!!!YEM: License CC-BY-4.0 (https://creativecommons.org/licenses/by/4.0)
